%
(Header)
(Generated by gcodetools from Inkscape.)
(Using default header. To add your own header create file "header" in the output dir.)
M3
(Header end.)
G21 (All units in mm)

(Start cutting path id: path3713)
(Change tool to Default tool)

G00 Z5.000000
G00 X55.184523 Y130.023810

G01 Z-0.125000 F100.0(Penetrate)
G01 X52.916666 Y133.047620 Z-0.125000 F400.000000
G03 X52.507748 Y132.972920 Z-0.125000 I-0.000000 J-1.156591
G02 X52.160714 Y133.047620 Z-0.125000 I-0.115678 J0.306054
G02 X52.160713 Y133.425596 Z-0.125000 I0.188987 J0.188988
G03 X52.160714 Y133.803570 Z-0.125000 I-0.188988 J0.188988
G03 X50.928379 Y134.493240 Z-0.125000 I-1.837498 J-1.837496
G02 X49.892857 Y135.315480 Z-0.125000 I0.364526 J1.522264
G02 X49.400843 Y136.977132 Z-0.125000 I4.431724 J2.215899
G03 X48.380951 Y139.095240 Z-0.125000 I-3.536031 J-0.398038
G03 X47.589656 Y139.444240 Z-0.125000 I-0.845531 J-0.845531
G02 X46.869048 Y139.851190 Z-0.125000 I0.041547 J0.915054
G02 X46.818709 Y140.582524 Z-0.125000 I0.614557 J0.409701
G03 X46.869048 Y141.363100 Z-0.125000 I-0.934804 J0.452197
G03 X46.524895 Y141.757616 Z-0.125000 I-0.644463 J-0.214825
G02 X46.113094 Y142.119050 Z-0.125000 I0.466807 J0.947169
G03 X45.248136 Y143.490162 Z-0.125000 I-7.324629 J-3.662317
G02 X44.601190 Y144.386910 Z-0.125000 I11.800333 J9.194918
G02 X43.845238 Y145.898808 Z-0.125000 I5.669584 J3.779739
G03 X43.089284 Y147.410720 Z-0.125000 I-6.425695 J-2.267897
G03 X42.696434 Y147.780062 Z-0.125000 I-0.991465 J-0.660972
G02 X42.333333 Y148.166670 Z-0.125000 I0.465259 J0.800786
G02 X42.333333 Y148.544645 Z-0.125000 I0.377969 J0.188988
G03 X42.333333 Y148.922620 Z-0.125000 I-0.377970 J0.188988
G03 X41.577377 Y149.678576 Z-0.125000 I-1.511900 J-0.755945
G02 X40.821427 Y150.434520 Z-0.125000 I0.755943 J1.511898
G02 X40.851797 Y150.834394 Z-0.125000 I0.349161 J0.174571
G03 X40.821427 Y151.190480 Z-0.125000 I-0.226429 J0.160026
G03 X40.443453 Y151.190481 Z-0.125000 I-0.188987 J-0.188985
G02 X40.065475 Y151.190480 Z-0.125000 I-0.188990 J0.188989
G02 X40.004741 Y151.902657 Z-0.125000 I0.392119 J0.392118
G03 X40.065475 Y152.702380 Z-0.125000 I-0.637534 J0.450585
G03 X39.309522 Y153.458335 Z-0.125000 I-1.511906 J-0.755948
G02 X38.553572 Y154.214290 Z-0.125000 I0.755949 J1.511895
G02 X38.553571 Y154.592265 Z-0.125000 I0.377973 J0.188988
G03 X38.553572 Y154.970240 Z-0.125000 I-0.377976 J0.188988
G03 X38.156627 Y155.340361 Z-0.125000 I-0.695082 J-0.347539
G02 X37.797618 Y155.726190 Z-0.125000 I0.243753 J0.586751
G02 X37.863892 Y157.822835 Z-0.125000 I2.875475 J0.958477
G03 X37.797618 Y159.505950 Z-0.125000 I-1.896062 J0.768203
G03 X37.419642 Y159.883930 Z-0.125000 I-0.755963 J-0.377979
G02 X37.041666 Y160.261910 Z-0.125000 I0.377987 J0.755959
G02 X36.866070 Y161.297791 Z-0.125000 I1.612219 J0.806116
G03 X37.041666 Y164.041670 Z-0.125000 I-21.350289 J2.743879
G01 X37.041666 Y168.577380 Z-0.125000
G03 X36.985664 Y169.716855 Z-0.125000 I-11.620413 J0.000000
G02 X37.041666 Y170.845240 Z-0.125000 I3.817285 J0.376128
G02 X37.409535 Y171.603460 Z-0.125000 I1.642339 J-0.328471
G03 X37.797618 Y172.357150 Z-0.125000 I-1.411577 J1.203595
G03 X37.783109 Y173.117322 Z-0.125000 I-1.412997 J0.353255
G02 X37.797618 Y173.869050 Z-0.125000 I1.211859 J0.352614
G02 X38.141770 Y174.263566 Z-0.125000 I0.644461 J-0.214822
G03 X38.553572 Y174.625000 Z-0.125000 I-0.466810 J0.947175
G03 X38.982161 Y175.356198 Z-0.125000 I-6.100297 J4.066869
G03 X39.309524 Y176.136910 Z-0.125000 I-5.011044 J2.560191
G03 X39.296111 Y176.520438 Z-0.125000 I-0.521322 J0.173767
G02 X39.309524 Y176.892860 Z-0.125000 I0.415256 J0.171497
G02 X39.672625 Y177.279468 Z-0.125000 I0.828361 J-0.414178
G03 X40.065475 Y177.648810 Z-0.125000 I-0.598622 J1.030322
G03 X40.821429 Y179.160722 Z-0.125000 I-5.669741 J3.779809
G02 X41.577381 Y180.672620 Z-0.125000 I6.425536 J-2.267841
G02 X42.363087 Y181.411310 Z-0.125000 I1.982963 J-1.321973
G03 X43.089284 Y182.184520 Z-0.125000 I-0.930522 J1.601570
G03 X43.089284 Y182.562508 Z-0.125000 I-0.377998 J0.188994
G02 X43.089284 Y182.940480 Z-0.125000 I0.377979 J0.188986
G02 X43.467259 Y183.318450 Z-0.125000 I0.755952 J-0.377988
G03 X43.845239 Y183.696430 Z-0.125000 I-0.377977 J0.755956
G03 X43.814870 Y184.096291 Z-0.125000 I-0.349140 J0.174567
G02 X43.845239 Y184.452380 Z-0.125000 I0.226428 J0.160029
G02 X44.223212 Y184.452381 Z-0.125000 I0.188987 J-0.188985
G03 X44.601190 Y184.452380 Z-0.125000 I0.188989 J0.188989
G03 X44.601190 Y185.208335 Z-0.125000 I-0.377978 J0.377978
G02 X44.601190 Y185.964290 Z-0.125000 I0.377978 J0.377978
G02 X44.979167 Y185.964290 Z-0.125000 I0.188988 J-0.188987
G03 X45.357142 Y185.964290 Z-0.125000 I0.188987 J0.188986
G03 X45.357143 Y186.342266 Z-0.125000 I-0.188987 J0.188988
G02 X45.357142 Y186.720240 Z-0.125000 I0.188988 J0.188988
G02 X45.735120 Y186.720239 Z-0.125000 I0.188989 J-0.188990
G03 X46.113094 Y186.720240 Z-0.125000 I0.188987 J0.188987
G03 X46.143462 Y187.076329 Z-0.125000 I-0.196059 J0.196060
G02 X46.113094 Y187.476190 Z-0.125000 I0.318770 J0.225293
G02 X46.491071 Y187.854170 Z-0.125000 I0.755961 J-0.377978
G03 X46.869048 Y188.232150 Z-0.125000 I-0.377984 J0.755958
G03 X46.838679 Y188.632011 Z-0.125000 I-0.349140 J0.174567
G02 X46.869048 Y188.988100 Z-0.125000 I0.226428 J0.160029
G02 X47.225134 Y189.018469 Z-0.125000 I0.196059 J-0.196056
G03 X47.624999 Y188.988100 Z-0.125000 I0.225295 J0.318773
G03 X48.028495 Y189.330665 Z-0.125000 I-0.497387 J0.994771
G02 X48.380951 Y189.744050 Z-0.125000 I2.774615 J-2.008716
G02 X48.794334 Y190.096501 Z-0.125000 I2.421826 J-2.421865
G03 X49.136905 Y190.500000 Z-0.125000 I-0.652178 J0.900871
G03 X49.136904 Y190.877975 Z-0.125000 I-0.377977 J0.188987
G02 X49.136905 Y191.255950 Z-0.125000 I0.377974 J0.188987
G02 X50.004877 Y191.763464 Z-0.125000 I0.822957 J-0.411478
G03 X50.648809 Y192.011910 Z-0.125000 I0.041670 J0.850705
G03 X50.692597 Y192.362827 Z-0.125000 I-0.203594 J0.203595
G02 X50.648809 Y192.767860 Z-0.125000 I0.420349 J0.250327
G02 X50.999005 Y193.535324 Z-0.125000 I3.770318 J-1.256780
G03 X51.404760 Y194.279760 Z-0.125000 I-10.313168 J6.103983
G03 X52.115160 Y195.818106 Z-0.125000 I-24.425225 J12.212637
G02 X52.916666 Y197.303573 Z-0.125000 I8.346286 J-3.544399
G02 X53.953363 Y198.452129 Z-0.125000 I4.416943 J-2.944629
G03 X55.184523 Y199.571430 Z-0.125000 I-11.144198 J13.494659
G02 X55.597906 Y199.923885 Z-0.125000 I2.421777 J-2.421777
G03 X55.940475 Y200.327382 Z-0.125000 I-0.652182 J0.900871
G03 X55.910107 Y200.727248 Z-0.125000 I-0.349141 J0.174570
G02 X55.940475 Y201.083333 Z-0.125000 I0.226426 J0.160028
G02 X56.584407 Y201.331776 Z-0.125000 I0.602257 J-0.602256
G03 X57.452381 Y201.839287 Z-0.125000 I0.045021 J0.918987
G03 X57.452380 Y202.217263 Z-0.125000 I-0.377980 J0.188987
G02 X57.452381 Y202.595239 Z-0.125000 I0.377975 J0.188987
G02 X57.794950 Y202.998736 Z-0.125000 I0.994754 J-0.497377
G03 X58.208333 Y203.351191 Z-0.125000 I-2.008408 J2.774247
G03 X58.560789 Y203.764576 Z-0.125000 I-2.421824 J2.421814
G02 X58.964284 Y204.107145 Z-0.125000 I0.900878 J-0.652187
G02 X59.342261 Y204.107144 Z-0.125000 I0.188988 J-0.377984
G03 X59.720238 Y204.107145 Z-0.125000 I0.188987 J0.377979
G03 X60.098213 Y204.485118 Z-0.125000 I-0.377967 J0.755943
G02 X60.476190 Y204.863097 Z-0.125000 I0.755958 J-0.377978
G02 X60.854166 Y204.863097 Z-0.125000 I0.188988 J-0.377972
G03 X61.232142 Y204.863097 Z-0.125000 I0.188988 J0.377970
G03 X62.366070 Y205.997024 Z-0.125000 I-1.133924 J2.267854
G02 X63.499999 Y207.130954 Z-0.125000 I2.267861 J-1.133931
G02 X63.899864 Y207.100586 Z-0.125000 I0.174570 J-0.349141
G03 X64.255951 Y207.130954 Z-0.125000 I0.160028 J0.226425
G03 X64.255952 Y207.508930 Z-0.125000 I-0.188985 J0.188988
G02 X64.255951 Y207.886906 Z-0.125000 I0.188987 J0.188989
G03 X64.742478 Y208.224231 Z-0.125000 I0.000000 J0.519524
G02 X65.011905 Y208.642857 Z-0.125000 I1.099981 J-0.411931
G02 X65.389879 Y208.642859 Z-0.125000 I0.188988 J-0.188985
G03 X65.767857 Y208.642857 Z-0.125000 I0.188989 J0.188990
G03 X65.767856 Y209.020834 Z-0.125000 I-0.188991 J0.188988
G02 X65.767857 Y209.398812 Z-0.125000 I0.188990 J0.188989
G02 X66.480032 Y209.459547 Z-0.125000 I0.392117 J-0.392117
G03 X67.279760 Y209.398812 Z-0.125000 I0.450588 J0.637540
G03 X67.657737 Y209.776786 Z-0.125000 I-0.377965 J0.755945
G02 X68.035714 Y210.154763 Z-0.125000 I0.755955 J-0.377977
G02 X68.791666 Y210.154762 Z-0.125000 I0.377975 J-0.755955
G03 X69.547617 Y210.154763 Z-0.125000 I0.377975 J0.755950
G03 X69.925595 Y210.532739 Z-0.125000 I-0.377977 J0.755956
G02 X70.303572 Y210.910715 Z-0.125000 I0.755954 J-0.377980
G02 X70.681546 Y210.910715 Z-0.125000 I0.188987 J-0.377970
G03 X71.059523 Y210.910715 Z-0.125000 I0.188989 J0.377974
G03 X71.437500 Y211.288692 Z-0.125000 I-0.377974 J0.755950
G02 X71.815475 Y211.666666 Z-0.125000 I0.755938 J-0.377966
G02 X72.183071 Y211.710643 Z-0.125000 I0.245064 J-0.490125
G03 X72.571427 Y211.666666 Z-0.125000 I0.388356 J1.692791
G02 X73.710902 Y211.610664 Z-0.125000 I-0.000000 J-11.620459
G03 X74.839284 Y211.666666 Z-0.125000 I0.376127 J3.817293
G03 X75.597510 Y212.034539 Z-0.125000 I-0.328473 J1.642346
G02 X76.351190 Y212.422621 Z-0.125000 I1.203592 J-1.411565
G02 X78.321490 Y212.559303 Z-0.125000 I1.370065 J-5.480280
G03 X80.886905 Y212.422621 Z-0.125000 I2.565415 J24.007012
G01 X89.202381 Y212.422621 Z-0.125000
G01 X93.738093 Y212.422621 Z-0.125000
G03 X94.875899 Y212.469463 Z-0.125000 I-0.000000 J13.842118
G02 X96.005950 Y212.422621 Z-0.125000 I0.376683 J-4.567076
G02 X98.727381 Y211.515476 Z-0.125000 I-1.511909 J-9.071435
G03 X102.809520 Y210.154763 Z-0.125000 I6.349988 J12.246394
G03 X105.069627 Y210.061078 Z-0.125000 I1.506738 J9.040488
G02 X107.345240 Y210.154763 Z-0.125000 I2.275613 J-27.590513
G01 X109.613090 Y210.154763 Z-0.125000
G01 X111.125000 Y210.154763 Z-0.125000
G03 X111.886658 Y210.201116 Z-0.125000 I-0.000000 J6.280814
G02 X112.636900 Y210.154763 Z-0.125000 I0.250080 J-2.046999
G02 X114.008614 Y209.327198 Z-0.125000 I-0.661954 J-2.647820
G03 X114.904760 Y208.642857 Z-0.125000 I2.241384 J2.006174
G03 X115.704488 Y208.703593 Z-0.125000 I0.349139 J0.698278
G02 X116.416670 Y208.642857 Z-0.125000 I0.320061 J-0.452857
G02 X116.416668 Y208.264887 Z-0.125000 I-0.188982 J-0.188984
G03 X116.416670 Y207.886906 Z-0.125000 I0.188984 J-0.188989
G03 X116.772758 Y207.856539 Z-0.125000 I0.196059 J0.196060
G02 X117.172620 Y207.886906 Z-0.125000 I0.225292 J-0.318768
G02 X117.945831 Y207.160705 Z-0.125000 I-0.828377 J-1.656734
G03 X118.684520 Y206.375000 Z-0.125000 I2.060663 J1.197258
G03 X119.990530 Y205.670522 Z-0.125000 I0.961569 J0.219797
G02 X120.952380 Y205.619048 Z-0.125000 I0.421739 J-1.131695
G02 X121.330355 Y205.241073 Z-0.125000 I-0.377970 J-0.755944
G03 X121.708330 Y204.863097 Z-0.125000 I0.755945 J0.377969
G03 X122.832031 Y204.462339 Z-0.125000 I2.208845 J4.417690
G02 X123.976190 Y204.107145 Z-0.125000 I-1.657210 J-7.358638
G02 X124.723223 Y203.701598 Z-0.125000 I-1.353932 J-3.384797
G03 X125.488090 Y203.351191 Z-0.125000 I1.320650 J1.872733
G03 X126.248267 Y203.365701 Z-0.125000 I0.353256 J1.413022
G02 X127.000000 Y203.351191 Z-0.125000 I0.352615 J-1.211872
G02 X127.394516 Y203.007041 Z-0.125000 I-0.214817 J-0.644456
G03 X127.755950 Y202.595239 Z-0.125000 I0.947175 J0.466811
G03 X129.645830 Y201.839287 Z-0.125000 I2.740325 J4.110486
G02 X131.535710 Y201.083333 Z-0.125000 I-0.850444 J-4.866427
G02 X131.913690 Y200.705356 Z-0.125000 I-0.755928 J-1.133935
G03 X132.291660 Y200.327382 Z-0.125000 I1.133945 J0.755982
G03 X133.047622 Y199.949405 Z-0.125000 I1.889954 J2.834989
G02 X133.803570 Y199.571430 Z-0.125000 I-1.133930 J-3.212790
G02 X134.172912 Y199.178578 Z-0.125000 I-0.660977 J-0.991467
G03 X134.559520 Y198.815478 Z-0.125000 I0.800775 J0.465250
G03 X134.937495 Y198.815477 Z-0.125000 I0.188988 J0.377973
G02 X135.315470 Y198.815478 Z-0.125000 I0.188988 J-0.377976
G02 X135.693450 Y198.437501 Z-0.125000 I-0.377978 J-0.755961
G03 X136.071430 Y198.059524 Z-0.125000 I0.755958 J0.377984
G03 X136.471291 Y198.089892 Z-0.125000 I0.174568 J0.349138
G02 X136.827380 Y198.059524 Z-0.125000 I0.160029 J-0.226427
G02 X136.827381 Y197.681551 Z-0.125000 I-0.188985 J-0.188987
G03 X136.827380 Y197.303573 Z-0.125000 I0.188989 J-0.188989
G03 X137.205354 Y197.303574 Z-0.125000 I0.188987 J0.188988
G02 X137.583330 Y197.303573 Z-0.125000 I0.188988 J-0.188988
G02 X137.583330 Y196.925597 Z-0.125000 I-0.188987 J-0.188988
G03 X137.583330 Y196.547620 Z-0.125000 I0.188988 J-0.188989
G03 X137.961305 Y196.547620 Z-0.125000 I0.188987 J0.188987
G02 X138.339280 Y196.547620 Z-0.125000 I0.188987 J-0.188988
G02 X138.339280 Y196.169645 Z-0.125000 I-0.188987 J-0.188987
G03 X138.339280 Y195.791670 Z-0.125000 I0.188987 J-0.188987
G03 X138.695366 Y195.761300 Z-0.125000 I0.196060 J0.196060
G02 X139.095240 Y195.791670 Z-0.125000 I0.225302 J-0.318790
G02 X140.229165 Y194.657740 Z-0.125000 I-1.133920 J-2.267840
G03 X141.363090 Y193.523810 Z-0.125000 I2.267845 J1.133910
G03 X141.762957 Y193.554178 Z-0.125000 I0.174571 J0.349141
G02 X142.119050 Y193.523810 Z-0.125000 I0.160031 J-0.226430
G02 X142.119047 Y193.145838 Z-0.125000 I-0.188995 J-0.188985
G03 X142.119050 Y192.767860 Z-0.125000 I0.188993 J-0.188988
G03 X142.497017 Y192.767857 Z-0.125000 I0.188985 J0.188974
G02 X142.875000 Y192.767860 Z-0.125000 I0.188993 J-0.188987
G02 X142.905368 Y192.411771 Z-0.125000 I-0.196059 J-0.196059
G03 X142.875000 Y192.011910 Z-0.125000 I0.318769 J-0.225293
G03 X143.252975 Y191.633930 Z-0.125000 I0.755970 J0.377985
G02 X143.630950 Y191.255950 Z-0.125000 I-0.377995 J-0.755965
G02 X143.600582 Y190.856089 Z-0.125000 I-0.349137 J-0.174568
G03 X143.630950 Y190.500000 Z-0.125000 I0.226427 J-0.160029
G03 X144.008925 Y190.500000 Z-0.125000 I0.188988 J0.188988
G02 X144.386900 Y190.500000 Z-0.125000 I0.188988 J-0.188988
G02 X144.447635 Y189.787822 Z-0.125000 I-0.392119 J-0.392119
G03 X144.386900 Y188.988100 Z-0.125000 I0.637538 J-0.450586
G03 X145.254873 Y188.480591 Z-0.125000 I0.822951 J0.411477
G02 X145.898810 Y188.232150 Z-0.125000 I0.041678 J-0.850708
G02 X145.929175 Y187.876049 Z-0.125000 I-0.196076 J-0.196065
G03 X145.898810 Y187.476190 Z-0.125000 I0.318772 J-0.225290
G03 X146.241379 Y187.072696 Z-0.125000 I0.994782 J0.497407
G02 X146.654760 Y186.720240 Z-0.125000 I-2.008500 J-2.774337
G02 X146.566808 Y185.943526 Z-0.125000 I-3.473619 J-0.000000
G03 X146.654760 Y185.208330 Z-0.125000 I1.068233 J-0.245066
G03 X146.990973 Y185.178230 Z-0.125000 I0.177394 J0.088697
G02 X147.410710 Y185.208330 Z-0.125000 I0.222904 J-0.166733
G02 X147.508526 Y184.722755 Z-0.125000 I-0.311433 J-0.315376
G03 X147.410710 Y182.940480 Z-0.125000 I2.475962 J-1.029708
G03 X147.769725 Y182.554640 Z-0.125000 I0.602771 J0.200918
G02 X148.166660 Y182.184520 Z-0.125000 I-0.298123 J-0.717628
G02 X148.166666 Y180.672617 Z-0.125000 I-1.511883 J-0.755956
G03 X148.166660 Y179.160720 Z-0.125000 I1.511909 J-0.755957
G03 X148.502886 Y179.130623 Z-0.125000 I0.177401 J0.088708
G02 X148.922620 Y179.160720 Z-0.125000 I0.222902 J-0.166735
G02 X149.125048 Y178.147224 Z-0.125000 I-0.658547 J-0.658497
G03 X148.922620 Y175.380950 Z-0.125000 I4.100144 J-1.690580
G03 X149.310698 Y174.627272 Z-0.125000 I1.799568 J0.449867
G02 X149.678570 Y173.869050 Z-0.125000 I-1.274428 J-1.086676
G02 X149.734571 Y172.740673 Z-0.125000 I-3.761367 J-0.752253
G03 X149.678570 Y171.601190 Z-0.125000 I11.564876 J-1.139483
G02 X149.655399 Y171.220363 Z-0.125000 I-3.141104 J0.000000
G03 X149.678570 Y170.845240 Z-0.125000 I1.023745 J-0.125041
G03 X150.056545 Y169.711310 Z-0.125000 I7.559367 J1.889817
G02 X150.434520 Y168.577380 Z-0.125000 I-7.181392 J-3.023747
G02 X150.434521 Y167.065483 Z-0.125000 I-3.023802 J-0.755951
G03 X150.434520 Y165.553570 Z-0.125000 I3.023849 J-0.755958
G03 X150.812499 Y164.797619 Z-0.125000 I1.889889 J0.472466
G02 X151.190470 Y164.041670 Z-0.125000 I-1.511842 J-1.228361
G02 X151.260002 Y162.916298 Z-0.125000 I-3.000908 J-0.750247
G03 X151.190470 Y161.773810 Z-0.125000 I9.351415 J-1.142488
G01 X151.190470 Y156.482150 Z-0.125000
G02 X151.016892 Y153.702919 Z-0.125000 I-22.336546 J-0.000000
G03 X151.190470 Y151.946430 Z-0.125000 I3.955129 J-0.495972
G03 X151.568448 Y151.190482 Z-0.125000 I2.834731 J0.944910
G02 X151.946430 Y150.434520 Z-0.125000 I-2.456746 J-1.700853
G02 X152.037480 Y149.371891 Z-0.125000 I-2.161115 J-0.720389
G03 X151.946430 Y148.166670 Z-0.125000 I7.931136 J-1.205221
G01 X151.946430 Y144.386910 Z-0.125000
G03 X152.060608 Y142.267156 Z-0.125000 I19.733988 J-0.000000
G02 X151.946430 Y140.607150 Z-0.125000 I-4.716170 J-0.509542
G02 X151.190475 Y139.095240 Z-0.125000 I-3.779838 J0.944975
G03 X150.434520 Y137.583330 Z-0.125000 I3.023883 J-2.456885
G03 X150.449030 Y136.823158 Z-0.125000 I1.413010 J-0.353253
G02 X150.434520 Y136.071430 Z-0.125000 I-1.211858 J-0.352612
G02 X149.716502 Y135.299767 Z-0.125000 I-1.205534 J0.401845
G03 X148.922620 Y134.559520 Z-0.125000 I0.596276 J-1.435305
G03 X148.922618 Y134.181553 Z-0.125000 I0.377970 J-0.188985
G02 X148.922620 Y133.803570 Z-0.125000 I-0.377994 J-0.188994
G02 X148.166665 Y133.047620 Z-0.125000 I-1.511914 J0.755969
G03 X147.410710 Y132.291670 Z-0.125000 I0.755959 J-1.511919
G03 X147.441078 Y131.891809 Z-0.125000 I0.349137 J-0.174568
G02 X147.410710 Y131.535720 Z-0.125000 I-0.226427 J-0.160029
G02 X146.766776 Y131.287275 Z-0.125000 I-0.602260 J0.602257
G03 X145.898810 Y130.779760 Z-0.125000 I-0.045018 J-0.918975
G03 X145.929178 Y130.379899 Z-0.125000 I0.349137 J-0.174568
G02 X145.898810 Y130.023810 Z-0.125000 I-0.226427 J-0.160029
G02 X145.542721 Y129.993442 Z-0.125000 I-0.196059 J0.196059
G03 X145.142860 Y130.023810 Z-0.125000 I-0.225293 J-0.318769
G03 X144.764880 Y129.645835 Z-0.125000 I0.377985 J-0.755970
G02 X144.386900 Y129.267860 Z-0.125000 I-0.755965 J0.377995
G02 X143.987039 Y129.298228 Z-0.125000 I-0.174568 J0.349137
G03 X143.630950 Y129.267860 Z-0.125000 I-0.160029 J-0.226427
G03 X143.600582 Y128.911771 Z-0.125000 I0.196059 J-0.196059
G02 X143.630950 Y128.511910 Z-0.125000 I-0.318769 J-0.225293
G02 X143.252972 Y128.133929 Z-0.125000 I-0.755960 J0.377986
G03 X142.875000 Y127.755960 Z-0.125000 I0.377980 J-0.755963
G03 X142.905370 Y127.356086 Z-0.125000 I0.349160 J-0.174572
G02 X142.875000 Y127.000000 Z-0.125000 I-0.226429 J-0.160027
G02 X142.497017 Y127.000003 Z-0.125000 I-0.188990 J0.188990
G03 X142.119050 Y127.000000 Z-0.125000 I-0.188982 J-0.188977
G03 X142.119047 Y126.622022 Z-0.125000 I0.188990 J-0.188990
G02 X142.119050 Y126.244050 Z-0.125000 I-0.188993 J-0.188987
G02 X141.762957 Y126.213682 Z-0.125000 I-0.196062 J0.196062
G03 X141.363090 Y126.244050 Z-0.125000 I-0.225296 J-0.318773
G03 X140.959596 Y125.901481 Z-0.125000 I0.497407 J-0.994782
G02 X140.607140 Y125.488100 Z-0.125000 I-2.774337 J2.008500
G01 X139.851190 Y124.732150 Z-0.125000
G01 X136.827380 Y121.708330 Z-0.125000
G01 X136.071430 Y120.952380 Z-0.125000
G03 X135.718969 Y120.539000 Z-0.125000 I2.421490 J-2.421587
G02 X135.315470 Y120.196430 Z-0.125000 I-0.900882 J0.652195
G02 X134.915609 Y120.226798 Z-0.125000 I-0.174568 J0.349137
G03 X134.559520 Y120.196430 Z-0.125000 I-0.160029 J-0.226427
G03 X134.529152 Y119.840341 Z-0.125000 I0.196059 J-0.196059
G02 X134.559520 Y119.440480 Z-0.125000 I-0.318769 J-0.225293
G02 X133.609628 Y118.122542 Z-0.125000 I-4.534982 J2.267265
G02 X132.291660 Y117.172620 Z-0.125000 I-3.585971 J3.586084
G02 X131.913685 Y117.172620 Z-0.125000 I-0.188988 J0.377975
G03 X131.535710 Y117.172620 Z-0.125000 I-0.188987 J-0.377975
G03 X130.779759 Y116.416664 Z-0.125000 I0.755966 J-1.511923
G02 X130.023810 Y115.660720 Z-0.125000 I-1.511876 J0.755947
G02 X129.645833 Y115.660717 Z-0.125000 I-0.188992 J0.377950
G03 X129.267860 Y115.660720 Z-0.125000 I-0.188990 J-0.377963
G03 X128.183075 Y114.756019 Z-0.125000 I1.376672 J-2.753413
G02 X127.000000 Y113.392860 Z-0.125000 I-10.228473 J7.682238
G02 X125.636834 Y112.209772 Z-0.125000 I-9.045838 J9.045838
G03 X124.732140 Y111.125000 Z-0.125000 I1.848769 J-2.461503
G03 X124.475002 Y110.462387 Z-0.125000 I3.405579 J-1.702789
G02 X123.976190 Y109.613100 Z-0.125000 I-1.882796 J0.534696
G03 X123.623732 Y109.199708 Z-0.125000 I2.422285 J-2.422189
G02 X123.220240 Y108.857150 Z-0.125000 I-0.900840 J0.652170
G02 X122.820369 Y108.887512 Z-0.125000 I-0.174579 J0.349127
G03 X122.464280 Y108.857150 Z-0.125000 I-0.160032 J-0.226430
G03 X122.464283 Y108.479173 Z-0.125000 I0.188998 J-0.188987
G02 X122.464280 Y108.101190 Z-0.125000 I-0.188995 J-0.188990
G02 X122.086313 Y108.101187 Z-0.125000 I-0.188985 J0.188974
G03 X121.708330 Y108.101190 Z-0.125000 I-0.188993 J-0.188988
G03 X121.018669 Y106.868859 Z-0.125000 I1.837462 J-1.837462
G02 X120.196430 Y105.833330 Z-0.125000 I-1.522259 J0.364512
G02 X119.533811 Y105.576192 Z-0.125000 I-1.702774 J3.405564
G03 X118.684520 Y105.077380 Z-0.125000 I0.534686 J-1.882790
G01 X114.148810 Y100.541670 Z-0.125000
G02 X112.785644 Y99.358582 Z-0.125000 I-9.045838 J9.045838
G03 X111.880950 Y98.273810 Z-0.125000 I1.848769 J-2.461503
G03 X111.911318 Y97.873949 Z-0.125000 I0.349137 J-0.174568
G02 X111.880950 Y97.517860 Z-0.125000 I-0.226427 J-0.160029
G02 X111.524861 Y97.487492 Z-0.125000 I-0.196059 J0.196059
G03 X111.125000 Y97.517860 Z-0.125000 I-0.225293 J-0.318769
G03 X110.369044 Y96.761904 Z-0.125000 I0.755962 J-1.511901
G02 X109.613090 Y96.005960 Z-0.125000 I-1.511876 J0.755925
G02 X109.213224 Y96.036322 Z-0.125000 I-0.174577 J0.349123
G03 X108.857140 Y96.005960 Z-0.125000 I-0.160030 J-0.226427
G03 X108.857143 Y95.627972 Z-0.125000 I0.189003 J-0.188993
G02 X108.857140 Y95.250000 Z-0.125000 I-0.188990 J-0.188985
G02 X108.501051 Y95.219632 Z-0.125000 I-0.196059 J0.196059
G03 X108.101190 Y95.250000 Z-0.125000 I-0.225293 J-0.318769
G03 X107.723209 Y94.872022 Z-0.125000 I0.377986 J-0.755960
G02 X107.345240 Y94.494050 Z-0.125000 I-0.755963 J0.377980
G02 X106.967268 Y94.494048 Z-0.125000 I-0.188987 J0.377975
G03 X106.589280 Y94.494050 Z-0.125000 I-0.188996 J-0.377999
G03 X106.211311 Y94.116078 Z-0.125000 I0.377987 J-0.755966
G02 X105.833330 Y93.738100 Z-0.125000 I-0.755959 J0.377996
G02 X105.465735 Y93.694124 Z-0.125000 I-0.245063 J0.490126
G03 X105.077380 Y93.738100 Z-0.125000 I-0.388355 J-1.692789
G01 X104.321430 Y93.738100 Z-0.125000
G01 X100.541670 Y93.738100 Z-0.125000
G01 X96.005950 Y93.738100 Z-0.125000
G01 X95.249999 Y93.738100 Z-0.125000
G03 X94.861640 Y93.694124 Z-0.125000 I0.000000 J-1.736797
G02 X94.494047 Y93.738100 Z-0.125000 I-0.122531 J0.534102
G02 X93.738094 Y94.494050 Z-0.125000 I0.755937 J1.511893
G03 X92.982141 Y95.250000 Z-0.125000 I-1.511890 J-0.755943
G03 X92.604166 Y95.250000 Z-0.125000 I-0.188988 J-0.377976
G02 X92.226190 Y95.250000 Z-0.125000 I-0.188988 J0.377976
G02 X91.848212 Y95.627981 Z-0.125000 I0.377977 J0.755951
G03 X91.470238 Y96.005960 Z-0.125000 I-0.755953 J-0.377970
G03 X91.070376 Y95.975589 Z-0.125000 I-0.174566 J-0.349137
G02 X90.714284 Y96.005960 Z-0.125000 I-0.160030 J0.226423
G02 X90.714282 Y96.383927 Z-0.125000 I0.188975 J0.188984
G03 X90.714284 Y96.761910 Z-0.125000 I-0.188987 J0.188993
G03 X90.336310 Y96.761911 Z-0.125000 I-0.188987 J-0.188986
G02 X89.958332 Y96.761910 Z-0.125000 I-0.188989 J0.188989
G02 X89.958332 Y97.139885 Z-0.125000 I0.188986 J0.188988
G03 X89.958332 Y97.517860 Z-0.125000 I-0.188986 J0.188988
G03 X88.824407 Y97.517856 Z-0.125000 I-0.566961 J-0.566970
G02 X87.690475 Y97.517860 Z-0.125000 I-0.566964 J0.566966
G02 X87.690476 Y97.895834 Z-0.125000 I0.188988 J0.188987
G03 X87.690475 Y98.273810 Z-0.125000 I-0.188988 J0.188988
G03 X87.334386 Y98.304178 Z-0.125000 I-0.196060 J-0.196059
G02 X86.934523 Y98.273810 Z-0.125000 I-0.225294 J0.318770
G03 X86.085233 Y98.772622 Z-0.125000 I-1.383978 J-1.383977
G02 X85.422617 Y99.029760 Z-0.125000 I1.040160 J3.662699
G02 X84.915108 Y99.897733 Z-0.125000 I0.411477 J0.822951
G03 X84.666666 Y100.541670 Z-0.125000 I-0.850709 J0.041677
G03 X83.954489 Y100.602406 Z-0.125000 I-0.392119 J-0.392119
G02 X83.154760 Y100.541670 Z-0.125000 I-0.450590 J0.637549
G02 X81.836829 Y101.491580 Z-0.125000 I2.268107 J4.536057
G02 X80.886905 Y102.809530 Z-0.125000 I3.585427 J3.585535
G02 X80.917272 Y103.209392 Z-0.125000 I0.349136 J0.174570
G03 X80.886905 Y103.565480 Z-0.125000 I-0.226428 J0.160029
G03 X80.530815 Y103.595848 Z-0.125000 I-0.196060 J-0.196061
G02 X80.130951 Y103.565480 Z-0.125000 I-0.225295 J0.318774
G02 X78.813012 Y104.515410 Z-0.125000 I2.268030 J4.535901
G02 X77.863093 Y105.833330 Z-0.125000 I3.585935 J3.585937
G02 X77.893463 Y106.233204 Z-0.125000 I0.349161 J0.174571
G03 X77.863093 Y106.589290 Z-0.125000 I-0.226429 J0.160026
G03 X77.150917 Y106.650026 Z-0.125000 I-0.392119 J-0.392118
G02 X76.351190 Y106.589290 Z-0.125000 I-0.450589 J0.637545
G02 X75.973213 Y106.967266 Z-0.125000 I0.377983 J0.755962
G03 X75.595238 Y107.345240 Z-0.125000 I-0.755960 J-0.377986
G03 X75.217262 Y107.345240 Z-0.125000 I-0.188988 J-0.377980
G02 X74.839284 Y107.345240 Z-0.125000 I-0.188989 J0.377982
G02 X74.461310 Y107.723214 Z-0.125000 I0.377984 J0.755959
G03 X74.083332 Y108.101190 Z-0.125000 I-0.755959 J-0.377985
G03 X73.705355 Y108.101190 Z-0.125000 I-0.188988 J-0.377980
G02 X73.327381 Y108.101190 Z-0.125000 I-0.188987 J0.377975
G02 X72.571427 Y108.857145 Z-0.125000 I0.755959 J1.511911
G03 X71.815475 Y109.613100 Z-0.125000 I-1.511912 J-0.755955
G03 X71.415612 Y109.582732 Z-0.125000 I-0.174569 J-0.349138
G02 X71.059523 Y109.613100 Z-0.125000 I-0.160029 J0.226427
G02 X71.059522 Y109.991076 Z-0.125000 I0.188987 J0.188988
G03 X71.059523 Y110.369050 Z-0.125000 I-0.188988 J0.188988
G02 X70.304541 Y110.560381 Z-0.125000 I0.000000 J1.585227
G02 X69.547617 Y111.125000 Z-0.125000 I1.561629 J2.883179
G01 X68.791666 Y111.880960 Z-0.125000
G02 X68.439210 Y112.294340 Z-0.125000 I2.421652 J2.421690
G03 X68.035714 Y112.636910 Z-0.125000 I-0.900885 J-0.652194
G03 X67.657738 Y112.636910 Z-0.125000 I-0.188988 J-0.377980
G02 X67.279760 Y112.636910 Z-0.125000 I-0.188989 J0.377982
G02 X66.901786 Y113.014884 Z-0.125000 I0.377984 J0.755959
G03 X66.523808 Y113.392860 Z-0.125000 I-0.755959 J-0.377985
G03 X66.123945 Y113.362492 Z-0.125000 I-0.174569 J-0.349138
G02 X65.767857 Y113.392860 Z-0.125000 I-0.160029 J0.226425
G02 X65.767856 Y113.770836 Z-0.125000 I0.188987 J0.188988
G03 X65.767857 Y114.148810 Z-0.125000 I-0.188988 J0.188988
G03 X65.389879 Y114.148809 Z-0.125000 I-0.188989 J-0.188990
G02 X65.011905 Y114.148810 Z-0.125000 I-0.188986 J0.188986
G02 X65.011904 Y114.526786 Z-0.125000 I0.188987 J0.188988
G03 X65.011905 Y114.904760 Z-0.125000 I-0.188988 J0.188988
G03 X64.633928 Y114.904760 Z-0.125000 I-0.188988 J-0.188990
G02 X64.255951 Y114.904760 Z-0.125000 I-0.188989 J0.188990
G02 X64.007509 Y115.548699 Z-0.125000 I0.602261 J0.602257
G03 X63.499999 Y116.416670 Z-0.125000 I-0.918973 J0.045027
G03 X63.100134 Y116.386301 Z-0.125000 I-0.174569 J-0.349142
G02 X62.744048 Y116.416670 Z-0.125000 I-0.160028 J0.226425
G02 X62.744047 Y116.794646 Z-0.125000 I0.188987 J0.188988
G03 X62.744048 Y117.172620 Z-0.125000 I-0.188988 J0.188988
G03 X62.366071 Y117.172620 Z-0.125000 I-0.188989 J-0.188990
G02 X61.988093 Y117.172620 Z-0.125000 I-0.188989 J0.188990
G02 X61.988096 Y117.550602 Z-0.125000 I0.188991 J0.188989
G03 X61.988093 Y117.928570 Z-0.125000 I-0.188977 J0.188982
G03 X61.632007 Y117.958939 Z-0.125000 I-0.196059 J-0.196056
G02 X61.232142 Y117.928570 Z-0.125000 I-0.225295 J0.318773
G02 X60.724632 Y118.796543 Z-0.125000 I0.411477 J0.822952
G03 X60.476190 Y119.440480 Z-0.125000 I-0.850710 J0.041676
G03 X60.098212 Y119.440479 Z-0.125000 I-0.188989 J-0.188990
G02 X59.720238 Y119.440480 Z-0.125000 I-0.188987 J0.188987
G02 X59.689870 Y119.796569 Z-0.125000 I0.196059 J0.196060
G03 X59.720238 Y120.196430 Z-0.125000 I-0.318770 J0.225293
G03 X59.342261 Y120.574405 Z-0.125000 I-0.755941 J-0.377968
G02 X58.964284 Y120.952380 Z-0.125000 I0.377964 J0.755943
G02 X58.964287 Y121.330362 Z-0.125000 I0.377999 J0.188988
G03 X58.964284 Y121.708330 Z-0.125000 I-0.377970 J0.188981
G03 X58.208330 Y122.464290 Z-0.125000 I-1.511910 J-0.755943
G02 X57.452381 Y123.220240 Z-0.125000 I0.755956 J1.511904
G02 X57.482748 Y123.620102 Z-0.125000 I0.349136 J0.174570
G03 X57.452381 Y123.976190 Z-0.125000 I-0.226428 J0.160029
G03 X57.074404 Y123.976190 Z-0.125000 I-0.188989 J-0.188990
G02 X56.696427 Y123.976190 Z-0.125000 I-0.188989 J0.188990
G02 X56.666058 Y124.332276 Z-0.125000 I0.196060 J0.196059
G03 X56.696427 Y124.732150 Z-0.125000 I-0.318789 J0.225301
G03 X56.318455 Y125.110119 Z-0.125000 I-0.755943 J-0.377976
G02 X55.940475 Y125.488100 Z-0.125000 I0.377977 J0.755957
G02 X55.970843 Y125.887961 Z-0.125000 I0.349134 J0.174569
G03 X55.940475 Y126.244050 Z-0.125000 I-0.226426 J0.160030
G03 X55.409695 Y126.180758 Z-0.125000 I-0.240487 J-0.240485
G02 X55.184523 Y126.244050 Z-0.125000 I-0.103691 J0.063292
G02 X56.360548 Y126.574616 Z-0.125000 I0.634471 J0.000000
G02 X55.940475 Y126.244050 Z-0.125000 I-0.229745 J-0.140237
G03 X55.050782 Y126.550450 Z-0.125000 I-0.758999 J-0.759005
G02 X54.428572 Y127.000000 Z-0.125000 I-0.068726 J0.560245
G02 X54.629326 Y128.516119 Z-0.125000 I2.320446 J0.464094
G03 X55.184523 Y130.023810 Z-0.125000 I-6.684566 J3.317618
G01 X55.184523 Y130.023810 Z-0.125000
G00 Z5.000000

(End cutting path id: path3713)


(Footer)
M5
G00 X0.0000 Y0.0000
M2
(Using default footer. To add your own footer create file "footer" in the output dir.)
(end)
%