%
(Header)
(Generated by gcodetools from Inkscape.)
(Using default header. To add your own header create file "header" in the output dir.)
M3
(Header end.)
G21 (All units in mm)

(Start cutting path id: path6615)
(Change tool to Default tool)

G00 Z5.000000
G00 X145.142860 Y259.291666

G01 Z-0.125000 F100.0(Penetrate)
G03 X108.848592 Y255.109321 Z-0.125000 I11.685621 J-260.978948 F400.000000
G03 X95.202754 Y250.763579 Z-0.125000 I10.667197 J-57.092669
G03 X85.565324 Y242.505222 Z-0.125000 I9.728252 J-21.105362
G03 X84.099702 Y236.424107 Z-0.125000 I7.616808 J-5.052916
G03 X88.564164 Y226.277629 Z-0.125000 I18.529806 J2.097712
G03 X99.029760 Y216.958333 Z-0.125000 I41.730252 J36.327099
G01 X182.184520 Y129.267860 Z-0.125000
G01 X46.113094 Y162.529760 Z-0.125000
G01 X80.886905 Y57.452380 Z-0.125000
G00 Z5.000000

(End cutting path id: path6615)


(Footer)
M5
G00 X0.0000 Y0.0000
M2
(Using default footer. To add your own footer create file "footer" in the output dir.)
(end)
%