%
(Header)
(Generated by gcodetools from Inkscape.)
(Using default header. To add your own header create file "header" in the output dir.)
M3
(Header end.)
G21 (All units in mm)

(Start cutting path id: path7044)
(Change tool to Default tool)

G00 Z5.000000
G00 X76.254239 Y57.452380

G01 Z-0.125000 F100.0(Penetrate)
G02 X73.921665 Y58.377389 Z-0.125000 I0.358071 J4.306443 F400.000000
G03 X71.761626 Y59.720240 Z-0.125000 I-6.846570 J-8.604341
G03 X70.798924 Y60.098215 Z-0.125000 I-3.333286 J-7.074891
G02 X69.836220 Y60.476190 Z-0.125000 I2.370597 J7.452910
G02 X67.910815 Y61.610120 Z-0.125000 I5.186584 J11.008414
G03 X65.985408 Y62.744050 Z-0.125000 I-7.111983 J-9.874475
G03 X63.909653 Y63.483778 Z-0.125000 I-4.801356 J-10.190847
G02 X61.492795 Y64.255960 Z-0.125000 I4.734491 J18.986895
G02 X59.713018 Y65.338672 Z-0.125000 I2.218995 J5.651782
G03 X58.283787 Y66.523810 Z-0.125000 I-22.959973 J-26.234481
G01 X56.358381 Y68.035720 Z-0.125000
G03 X55.368240 Y68.734872 Z-0.125000 I-7.363655 J-9.377731
G02 X54.432976 Y69.547620 Z-0.125000 I2.194908 J3.470273
G02 X53.089035 Y71.638526 Z-0.125000 I7.163250 J6.081581
G03 X51.865768 Y73.327380 Z-0.125000 I-5.044378 J-2.366289
G03 X50.871804 Y74.030257 Z-0.125000 I-2.987320 J-3.170237
G02 X49.940362 Y74.839290 Z-0.125000 I1.188192 J2.308671
G02 X49.248115 Y76.297594 Z-0.125000 I3.837728 J2.715198
G03 X48.656758 Y77.863100 Z-0.125000 I-8.919449 J-2.474805
G03 X48.030253 Y79.011897 Z-0.125000 I-12.376829 J-6.004558
G02 X47.373155 Y80.130960 Z-0.125000 I34.846911 J21.214080
G02 X46.779255 Y82.055697 Z-0.125000 I33.959282 J11.532523
G03 X46.089551 Y83.910720 Z-0.125000 I-11.261623 J-3.131384
G03 X45.167414 Y85.464297 Z-0.125000 I-8.617911 J-4.064762
G02 X44.164145 Y86.934530 Z-0.125000 I22.603272 J16.501632
G02 X43.553983 Y88.846182 Z-0.125000 I51.579844 J17.516481
G03 X42.880542 Y90.714290 Z-0.125000 I-17.163494 J-5.131890
G03 X40.781501 Y94.196983 Z-0.125000 I-13.320984 J-5.654742
G02 X39.029730 Y96.761910 Z-0.125000 I14.326051 J11.664946
G02 X38.667489 Y97.862184 Z-0.125000 I2.575313 J1.457633
G03 X38.387930 Y99.029760 Z-0.125000 I-5.240585 J-0.637525
G03 X37.780662 Y100.568284 Z-0.125000 I-28.815476 J-10.484599
G03 X37.104325 Y102.053570 Z-0.125000 I-30.780193 J-13.119375
G03 X36.017695 Y104.042137 Z-0.125000 I-21.064182 J-10.219110
G02 X35.178918 Y105.833330 Z-0.125000 I7.647442 J4.673120
G02 X34.476964 Y108.618558 Z-0.125000 I16.913017 J5.743617
G03 X33.895316 Y111.880960 Z-0.125000 I-162.760062 J-27.335138
G03 X33.544198 Y113.384935 Z-0.125000 I-17.703439 J-3.340073
G02 X33.253515 Y114.904760 Z-0.125000 I8.961678 J2.501728
G02 X33.213543 Y116.412933 Z-0.125000 I9.477569 J1.005807
G03 X33.253515 Y117.928570 Z-0.125000 I-28.714413 J1.515637
G01 X33.253515 Y122.464290 Z-0.125000
G03 X33.217114 Y124.356652 Z-0.125000 I-49.207309 J0.000000
G02 X33.253515 Y126.244050 Z-0.125000 I16.341090 J0.628893
G02 X34.532693 Y132.887811 Z-0.125000 I29.864071 J-2.304950
G03 X36.462523 Y139.095240 Z-0.125000 I-1570.712896 J491.723234
G03 X37.083060 Y141.375741 Z-0.125000 I-33.442172 J10.324484
G02 X37.746128 Y143.630950 Z-0.125000 I21.171791 J-4.999765
G02 X38.677219 Y145.921191 Z-0.125000 I25.272217 J-8.939961
G03 X39.671532 Y148.166670 Z-0.125000 I-72.350608 J33.380214
G03 X40.618176 Y150.447510 Z-0.125000 I-141.327427 J59.993628
G02 X41.596937 Y152.702380 Z-0.125000 I47.144143 J-19.123794
G02 X42.590798 Y154.568292 Z-0.125000 I17.219885 J-7.974373
G03 X43.522344 Y156.482150 Z-0.125000 I-9.887266 J5.996140
G03 X43.847354 Y157.991363 Z-0.125000 I-4.874638 J1.839358
G02 X44.164145 Y159.505950 Z-0.125000 I5.426262 J-0.344534
G02 X44.817246 Y160.632904 Z-0.125000 I3.490087 J-1.269879
G03 X45.447749 Y161.773810 Z-0.125000 I-2.548345 J2.152974
G03 X45.745484 Y163.677812 Z-0.125000 I-6.020296 J1.916695
G02 X46.089551 Y165.553570 Z-0.125000 I5.343623 J-0.010735
G02 X47.037540 Y167.076269 Z-0.125000 I4.307827 J-1.625486
G03 X48.014957 Y168.577380 Z-0.125000 I-3.738575 J3.503062
G03 X48.688201 Y170.823400 Z-0.125000 I-9.811098 J4.164789
G02 X49.298561 Y173.113100 Z-0.125000 I14.675410 J-2.685787
G02 X51.267220 Y177.622808 Z-0.125000 I32.426613 J-11.470899
G03 X53.149371 Y182.184520 Z-0.125000 I-23.814575 J12.494975
G03 X53.457893 Y184.081468 Z-0.125000 I-6.664400 J2.057469
G02 X53.791174 Y185.964290 Z-0.125000 I6.304973 J-0.145144
G02 X55.557553 Y189.517456 Z-0.125000 I14.064978 J-4.776455
G03 X57.641983 Y192.767860 Z-0.125000 I-63.712279 J43.151185
G03 X58.306055 Y193.879331 Z-0.125000 I-84.188312 J51.054231
G03 X58.925588 Y195.035720 Z-0.125000 I-14.084084 J8.289667
G03 X59.537998 Y196.576581 Z-0.125000 I-10.172636 J4.935208
G02 X60.209193 Y198.059524 Z-0.125000 I6.479157 J-2.039167
G02 X61.159558 Y199.208512 Z-0.125000 I4.383781 J-2.658432
G03 X62.134597 Y200.327382 Z-0.125000 I-4.144687 J4.596172
G03 X62.455498 Y201.083335 Z-0.125000 I-1.751412 J1.189561
G02 X62.776400 Y201.839287 Z-0.125000 I2.072313 J-0.433609
G02 X63.715719 Y203.007327 Z-0.125000 I7.694617 J-5.226172
G03 X64.701806 Y204.107145 Z-0.125000 I-19.856753 J18.795364
G02 X65.037145 Y204.465932 Z-0.125000 I3.924233 J-3.331667
G03 X65.343607 Y204.863097 Z-0.125000 I-1.234323 J1.269252
G03 X65.636864 Y205.653177 Z-0.125000 I-2.307001 J1.305762
G02 X65.985408 Y206.375000 Z-0.125000 I1.564106 J-0.310193
G02 X66.291927 Y206.401856 Z-0.125000 I0.166847 J-0.141653
G03 X66.627210 Y206.375000 Z-0.125000 I0.186766 J0.225328
G03 X66.948111 Y206.752977 Z-0.125000 I-0.383052 J0.650421
G02 X67.269013 Y207.130954 Z-0.125000 I0.703953 J-0.272444
G02 X67.584194 Y207.173894 Z-0.125000 I0.208822 J-0.354576
G03 X67.910814 Y207.130954 Z-0.125000 I0.326620 J1.220743
G03 X68.881461 Y207.221255 Z-0.125000 I-0.000000 J5.261896
G02 X69.836220 Y207.130954 Z-0.125000 I0.320263 J-1.706357
G02 X70.157120 Y206.752977 Z-0.125000 I-0.191527 J-0.487815
G03 X70.478022 Y206.375000 Z-0.125000 I0.512428 J0.109839
G03 X72.085778 Y206.013957 Z-0.125000 I1.972770 J5.024662
G02 X73.687032 Y205.619048 Z-0.125000 I-0.321848 J-4.748799
G02 X74.673544 Y204.941639 Z-0.125000 I-1.308726 J-2.962934
G03 X75.612436 Y204.107145 Z-0.125000 I7.309897 J7.278965
G03 X76.581060 Y203.365653 Z-0.125000 I30.569767 J38.930429
G02 X77.537841 Y202.595239 Z-0.125000 I-9.961426 J-13.350461
G03 X82.729568 Y198.181177 Z-0.125000 I219.475608 J252.882349
G02 X87.806672 Y193.523810 Z-0.125000 I-46.074649 J-55.323068
G02 X89.423791 Y191.278443 Z-0.125000 I-6.308055 J-6.248087
G03 X91.015683 Y188.988100 Z-0.125000 I8.939770 J4.515156
G03 X96.864684 Y184.044201 Z-0.125000 I23.090338 J21.385741
G02 X101.284510 Y180.672620 Z-0.125000 I-21.195302 J-32.367829
G02 X105.786055 Y176.156423 Z-0.125000 I-33.284818 J-37.678403
G03 X110.269740 Y171.601190 Z-0.125000 I42.038688 J36.894146
G03 X112.177866 Y170.048017 Z-0.125000 I15.610437 J17.229265
G02 X114.120550 Y168.577380 Z-0.125000 I-40.557018 J-55.593518
G01 X125.672980 Y159.505950 Z-0.125000
G03 X127.620807 Y158.046502 Z-0.125000 I33.199431 J42.279514
G02 X129.523790 Y156.482150 Z-0.125000 I-10.592854 J-14.825493
G02 X130.820385 Y154.995276 Z-0.125000 I-6.917043 J-7.340624
G03 X132.091000 Y153.458330 Z-0.125000 I11.345454 J8.085754
G03 X133.695503 Y151.946430 Z-0.125000 I15.144864 J14.465144
G02 X135.300010 Y150.434520 Z-0.125000 I-13.539827 J-15.976413
G02 X137.248533 Y148.206709 Z-0.125000 I-24.426932 J-23.330694
G03 X139.150820 Y145.898810 Z-0.125000 I80.228662 J64.190593
G01 X143.001630 Y141.363100 Z-0.125000
G03 X143.659020 Y140.629885 Z-0.125000 I13.896688 J11.798273
G02 X144.285230 Y139.851190 Z-0.125000 I-4.503671 J-4.262892
G02 X144.927034 Y138.717267 Z-0.125000 I-6.613042 J-4.491593
G03 X145.568840 Y137.583330 Z-0.125000 I7.255208 J3.357837
G03 X147.166026 Y135.683770 Z-0.125000 I10.031435 J6.813364
G02 X148.777850 Y133.803570 Z-0.125000 I-9.278601 J-9.585175
G02 X149.423796 Y132.674955 Z-0.125000 I-5.542957 J-3.921589
G03 X150.061460 Y131.535720 Z-0.125000 I6.898410 J3.113165
G03 X151.513572 Y130.086538 Z-0.125000 I4.498119 J3.055098
G02 X153.270460 Y128.511910 Z-0.125000 I-4.868949 J-7.199955
G02 X153.894763 Y127.348845 Z-0.125000 I-2.399318 J-2.036978
G03 X154.554060 Y126.244050 Z-0.125000 I2.434325 J0.703589
G03 X156.834636 Y124.919674 Z-0.125000 I109.390969 J185.745476
G02 X159.046680 Y123.220240 Z-0.125000 I-5.146024 J-8.987606
G02 X160.286294 Y121.608611 Z-0.125000 I-5.794900 J-5.739804
G03 X161.613890 Y120.196430 Z-0.125000 I3.765321 J2.209663
G03 X162.558407 Y120.122655 Z-0.125000 I0.537518 J0.798609
G02 X163.539290 Y120.196430 Z-0.125000 I0.588012 J-1.260379
G02 X163.863051 Y119.831908 Z-0.125000 I-0.129952 J-0.441460
G03 X164.181090 Y119.440480 Z-0.125000 I0.505369 J0.085698
G03 X165.200344 Y119.325134 Z-0.125000 I0.725173 J1.847005
G02 X166.748300 Y119.440480 Z-0.125000 I1.547956 J-10.329230
G02 X168.534178 Y119.326874 Z-0.125000 I0.000000 J-14.093781
G03 X169.957310 Y119.440480 Z-0.125000 I0.440702 J3.449899
G03 X170.609135 Y119.771183 Z-0.125000 I-0.566864 J1.925041
G02 X171.240910 Y120.196430 Z-0.125000 I3.843464 J-5.028174
G03 X172.518161 Y120.976631 Z-0.125000 I-23.565543 J40.014242
G02 X173.808120 Y121.708330 Z-0.125000 I8.182674 J-12.922836
G02 X174.775005 Y122.069963 Z-0.125000 I2.126970 J-4.213420
G03 X175.733530 Y122.464290 Z-0.125000 I-0.900337 J3.550678
G03 X178.768898 Y124.692070 Z-0.125000 I-9.484001 J16.103771
G02 X181.509740 Y127.000000 Z-0.125000 I35.112972 J-38.917879
G02 X184.690713 Y129.441227 Z-0.125000 I111.531296 J-142.034730
G03 X187.927760 Y132.291670 Z-0.125000 I-16.498977 J21.999985
G03 X190.174070 Y134.937502 Z-0.125000 I-18.769437 J18.211719
G02 X192.420370 Y137.583330 Z-0.125000 I21.016181 J-15.566208
G02 X193.718173 Y138.691861 Z-0.125000 I6.554613 J-6.359793
G03 X194.987580 Y139.851190 Z-0.125000 I-3.912982 J5.559154
G03 X197.082732 Y142.792473 Z-0.125000 I-16.220353 J13.771032
G02 X199.480200 Y145.898810 Z-0.125000 I13.729660 J-8.118190
G03 X201.229471 Y147.773290 Z-0.125000 I-30.605585 J30.314702
G03 X203.331000 Y150.434520 Z-0.125000 I-24.185316 J21.259119
G02 X203.960145 Y151.209341 Z-0.125000 I6.152544 J-4.352953
G03 X204.614610 Y151.946430 Z-0.125000 I-16.286535 J15.119980
G01 X207.823620 Y155.726190 Z-0.125000
G02 X208.829635 Y156.802552 Z-0.125000 I11.771514 J-9.993859
G03 X209.749030 Y157.994050 Z-0.125000 I-3.702980 J3.807794
G03 X210.116881 Y159.090783 Z-0.125000 I-2.645655 J1.497426
G02 X210.390830 Y160.261910 Z-0.125000 I6.117719 J-0.813446
G02 X211.051199 Y161.763343 Z-0.125000 I8.938937 J-3.035633
G03 X211.674430 Y163.285720 Z-0.125000 I-6.409189 J3.512554
G03 X212.008914 Y164.791250 Z-0.125000 I-12.987103 J3.675269
G02 X212.316230 Y166.309520 Z-0.125000 I19.986754 J-3.255321
G02 X212.637135 Y167.443458 Z-0.125000 I15.148971 J-3.674790
G03 X212.958030 Y168.577380 Z-0.125000 I-14.826006 J4.808061
G03 X213.278934 Y170.089286 Z-0.125000 I-26.050404 J6.319240
G02 X213.599830 Y171.601190 Z-0.125000 I26.375574 J-4.808112
G02 X214.221206 Y173.878690 Z-0.125000 I40.432848 J-9.807875
G03 X214.883430 Y176.136910 Z-0.125000 I-118.880537 J36.087988
G02 X215.241755 Y177.256699 Z-0.125000 I16.688567 J-4.723000
G03 X215.525240 Y178.404760 Z-0.125000 I-5.493475 J1.965508
G03 X215.517410 Y179.540827 Z-0.125000 I-3.827825 J0.541677
G02 X215.525240 Y180.672620 Z-0.125000 I3.482216 J0.541832
G02 X215.816340 Y181.442068 Z-0.125000 I2.108761 J-0.358006
G03 X216.167040 Y182.184520 Z-0.125000 I-3.069502 J1.903941
G03 X216.501582 Y183.310837 Z-0.125000 I-14.396630 J4.888970
G02 X216.808840 Y184.452380 Z-0.125000 I44.553144 J-11.379817
G02 X217.159313 Y185.574351 Z-0.125000 I20.968530 J-5.934264
G03 X217.450650 Y186.720240 Z-0.125000 I-6.932379 J2.372508
G03 X217.450651 Y187.476187 Z-0.125000 I-2.226317 J0.377976
G02 X217.450650 Y188.232150 Z-0.125000 I2.226384 J0.377983
G02 X218.053750 Y190.514266 Z-0.125000 I12.921639 J-2.194082
G03 X218.734250 Y192.767860 Z-0.125000 I-20.022246 J7.275500
G03 X219.760856 Y197.852560 Z-0.125000 I-64.321302 J15.632519
G02 X220.017860 Y198.815478 Z-0.125000 I4.889089 J-0.789149
G02 X220.962960 Y200.718276 Z-0.125000 I9.937343 J-3.749666
G03 X221.943260 Y202.595239 Z-0.125000 I-11.235418 J7.062509
G03 X222.585061 Y204.485118 Z-0.125000 I-12.413708 J5.269598
G02 X223.226870 Y206.375000 Z-0.125000 I13.054930 J-3.379570
G02 X225.483304 Y210.832995 Z-0.125000 I34.290298 J-14.556138
G03 X227.719470 Y214.690478 Z-0.125000 I-185.816637 J110.293977
G03 X228.985479 Y216.977643 Z-0.125000 I-119.762807 J67.785979
G02 X230.286670 Y219.226191 Z-0.125000 I40.023469 J-21.660046
G02 X232.745595 Y222.867117 Z-0.125000 I8.563486 J-3.132621
G03 X235.421110 Y226.029763 Z-0.125000 I-10.291670 J11.419512
G03 X236.044617 Y227.563826 Z-0.125000 I-3.880742 J2.471037
G02 X236.704710 Y229.053572 Z-0.125000 I3.790829 J-0.788568
G02 X237.970579 Y230.214590 Z-0.125000 I3.504153 J-2.550006
G03 X239.271900 Y231.321430 Z-0.125000 I-2.733763 J4.532517
G03 X241.197310 Y234.345238 Z-0.125000 I-10.011199 J8.499537
G02 X243.122720 Y237.369048 Z-0.125000 I11.936625 J-5.475736
G02 X244.069202 Y238.155539 Z-0.125000 I2.716287 J-2.306090
G03 X245.048120 Y238.880954 Z-0.125000 I-2.571188 J4.492926
G03 X246.324173 Y240.408581 Z-0.125000 I-5.739998 J6.091484
G02 X247.615340 Y241.904763 Z-0.125000 I6.142553 J-3.995657
G02 X248.253034 Y242.292828 Z-0.125000 I1.404350 J-1.589740
G03 X248.898940 Y242.660714 Z-0.125000 I-0.911294 J2.350938
G03 X249.213213 Y243.056446 Z-0.125000 I-0.673239 J0.857313
G02 X249.540740 Y243.416666 Z-0.125000 I0.744664 J-0.348069
G02 X249.861633 Y243.416668 Z-0.125000 I0.160448 J-0.272443
G03 X250.182540 Y243.416666 Z-0.125000 I0.160456 J0.272464
G03 X250.547519 Y243.723808 Z-0.125000 I-0.726837 J1.234130
G03 X250.824340 Y244.172620 Z-0.125000 I-1.333819 J1.132456
G03 X250.765661 Y244.620520 Z-0.125000 I-0.409978 J0.174083
G02 X250.824340 Y244.928572 Z-0.125000 I0.164564 J0.128268
G02 X251.769887 Y245.057389 Z-0.125000 I0.626469 J-1.063754
G03 X252.749740 Y244.928572 Z-0.125000 I0.979853 J3.662250
G01 X257.884170 Y244.928572 Z-0.125000
G03 X260.453781 Y245.012121 Z-0.125000 I0.000000 J39.557053
G02 X263.018580 Y244.928572 Z-0.125000 I0.855607 J-13.143551
G02 X264.305073 Y244.585049 Z-0.125000 I-0.662405 J-5.061423
G03 X265.585780 Y244.172620 Z-0.125000 I3.206382 J7.762021
G03 X267.516037 Y243.833423 Z-0.125000 I3.916420 J16.625221
G02 X269.436610 Y243.416666 Z-0.125000 I-1.178190 J-10.063279
G02 X273.152980 Y241.678479 Z-0.125000 I-4.966660 J-15.461110
G03 X276.496410 Y239.636905 Z-0.125000 I65.659429 J103.770135
G03 X279.076977 Y238.169160 Z-0.125000 I49.891458 J84.716010
G02 X281.630840 Y236.613096 Z-0.125000 I-15.928650 J-29.016382
G02 X286.004136 Y233.074001 Z-0.125000 I-17.884331 J-26.571460
G03 X290.616060 Y229.053572 Z-0.125000 I41.449897 J42.892674
G03 X298.875792 Y223.458062 Z-0.125000 I43.885556 J55.887039
G02 X300.884890 Y222.250000 Z-0.125000 I-36.272269 J-62.598176
G03 X303.458310 Y220.758267 Z-0.125000 I24.415839 J39.154686
G02 X306.019300 Y219.226191 Z-0.125000 I-15.352884 J-28.570085
G02 X308.586518 Y217.336306 Z-0.125000 I-17.813157 J-26.885967
G03 X311.153710 Y215.446430 Z-0.125000 I20.381207 J24.997103
G03 X313.715426 Y213.916795 Z-0.125000 I17.593220 J26.553876
G02 X316.288130 Y212.422621 Z-0.125000 I-20.220061 J-37.777345
G02 X320.894604 Y209.328683 Z-0.125000 I-48.311664 J-76.906009
G02 X325.273360 Y205.619048 Z-0.125000 I-20.698874 J-28.871513
G02 X328.704302 Y201.387107 Z-0.125000 I-18.204004 J-18.265194
G03 X331.049580 Y198.059524 Z-0.125000 I44.341515 J28.761601
G03 X332.991286 Y195.814667 Z-0.125000 I19.453197 J14.864013
G02 X334.900380 Y193.523810 Z-0.125000 I-13.510921 J-13.200280
G02 X336.229287 Y191.309118 Z-0.125000 I-14.015428 J-9.915881
G03 X337.467590 Y188.988100 Z-0.125000 I47.139728 J23.659024
G03 X338.795102 Y186.761531 Z-0.125000 I49.932111 J28.261209
G02 X340.034810 Y184.452380 Z-0.125000 I-16.454176 J-10.321066
G02 X342.447132 Y177.798798 Z-0.125000 I-41.712503 J-18.887374
G03 X344.527420 Y171.601190 Z-0.125000 I59.034258 J16.367495
G03 X345.780454 Y168.931492 Z-0.125000 I22.263737 J8.820671
G02 X347.094610 Y166.309520 Z-0.125000 I-35.914694 J-19.641089
G02 X350.223769 Y158.747197 Z-0.125000 I-102.290748 J-46.754704
G03 X350.945430 Y157.238100 Z-0.125000 I8.710627 J3.238385
G03 X352.218973 Y155.714463 Z-0.125000 I5.357088 J3.183691
G02 X353.512650 Y154.214290 Z-0.125000 I-4.503698 J-5.191662
G02 X354.177948 Y152.821119 Z-0.125000 I-5.386179 J-3.427569
G03 X356.079840 Y148.166670 Z-0.125000 I37.492370 J12.604260
G03 X356.734404 Y147.043432 Z-0.125000 I7.708060 J3.739509
G02 X357.363440 Y145.898810 Z-0.125000 I-5.328201 J-3.673312
G02 X357.717010 Y144.785470 Z-0.125000 I-5.730504 J-2.432682
G03 X358.005260 Y143.630950 Z-0.125000 I18.685509 J4.051985
G03 X358.355726 Y142.508984 Z-0.125000 I20.971472 J5.935097
G02 X358.647050 Y141.363100 Z-0.125000 I-6.932149 J-2.372368
G02 X358.678887 Y140.611863 Z-0.125000 I-2.949040 J-0.501274
G03 X358.647050 Y139.851190 Z-0.125000 I9.071233 J-0.760673
G01 X358.647050 Y133.803570 Z-0.125000
G01 X358.647050 Y128.511910 Z-0.125000
G02 X358.580520 Y128.095288 Z-0.125000 I-1.337738 J-0.000000
G03 X358.647050 Y127.755960 Z-0.125000 I0.336359 J-0.110238
G03 X358.967935 Y127.755945 Z-0.125000 I0.160449 J0.136200
G02 X359.288870 Y127.755960 Z-0.125000 I0.160474 J-0.136247
G02 X359.465670 Y127.086222 Z-0.125000 I-0.612311 J-0.519846
G03 X359.930660 Y126.244050 Z-0.125000 I0.740421 J-0.140644
G03 X360.567153 Y126.183848 Z-0.125000 I0.422991 J1.077318
G02 X361.214260 Y126.244050 Z-0.125000 I0.647107 J-3.447727
G01 X364.423270 Y126.244050 Z-0.125000
G01 X368.274090 Y126.244050 Z-0.125000
G02 X369.242673 Y126.165749 Z-0.125000 I0.000000 J-6.029856
G03 X370.199490 Y126.244050 Z-0.125000 I0.320468 J1.969147
G03 X373.616159 Y128.185166 Z-0.125000 I-3.283478 J9.756931
G02 X375.975710 Y130.023810 Z-0.125000 I20.833991 J-24.303140
G03 X377.573110 Y131.179277 Z-0.125000 I-51.703294 J73.160212
G02 X379.184720 Y132.291670 Z-0.125000 I17.612806 J-23.793417
G02 X381.127649 Y133.374566 Z-0.125000 I9.610875 J-14.959354
G03 X383.035520 Y134.559520 Z-0.125000 I-4.415403 J9.237544
G03 X384.966025 Y136.437008 Z-0.125000 I-7.874470 J10.028086
G02 X386.886330 Y138.339290 Z-0.125000 I10.776427 J-8.958137
G02 X389.110873 Y139.911351 Z-0.125000 I12.506086 J-15.336768
G03 X391.378950 Y141.363100 Z-0.125000 I-30.357123 J49.924741
G03 X393.618554 Y142.896213 Z-0.125000 I-96.301367 J143.081477
G02 X395.871560 Y144.386910 Z-0.125000 I32.666933 J-46.924146
G02 X398.487948 Y145.767054 Z-0.125000 I10.432473 J-16.607149
G03 X401.005970 Y147.410720 Z-0.125000 I-3.575140 J8.227533
G03 X402.984181 Y149.962012 Z-0.125000 I-6.693363 J7.232447
G02 X404.856790 Y152.702380 Z-0.125000 I14.005527 J-7.560570
G02 X406.782200 Y154.592265 Z-0.125000 I11.341233 J-9.628675
G03 X408.707610 Y156.482150 Z-0.125000 I-9.415823 J11.518560
G03 X410.312109 Y158.749999 Z-0.125000 I-12.024388 J10.208745
G02 X411.916610 Y161.017860 Z-0.125000 I13.629219 J-7.941090
G02 X413.502664 Y162.562672 Z-0.125000 I8.928578 J-7.580342
G03 X415.125620 Y164.041670 Z-0.125000 I-11.206562 J13.927309
G03 X417.077141 Y166.263973 Z-0.125000 I-21.362625 J20.727659
G02 X418.976420 Y168.577380 Z-0.125000 I71.062421 J-56.405043
G01 X420.260030 Y170.089290 Z-0.125000
G02 X421.297382 Y171.137048 Z-0.125000 I7.354465 J-6.244023
G03 X422.185450 Y172.357150 Z-0.125000 I-2.188528 J2.526196
G03 X422.265071 Y173.455094 Z-0.125000 I-1.567939 J0.665563
G02 X422.185450 Y174.625000 Z-0.125000 I3.023279 J0.793420
G02 X422.437853 Y176.163468 Z-0.125000 I18.464925 J-2.239446
G02 X422.827240 Y177.648810 Z-0.125000 I14.505524 J-3.008953
G02 X423.480803 Y179.154323 Z-0.125000 I7.729882 J-2.461026
G03 X424.110840 Y180.672620 Z-0.125000 I-6.112827 J3.426467
G03 X424.480717 Y182.542855 Z-0.125000 I-11.399755 J3.226224
G02 X424.752640 Y184.452380 Z-0.125000 I35.822890 J-4.127186
G02 X425.516042 Y188.770294 Z-0.125000 I318.212388 J-54.033134
G03 X426.036240 Y192.767860 Z-0.125000 I-37.863067 J6.959700
G03 X426.072622 Y194.655249 Z-0.125000 I-16.312934 J1.258501
G02 X426.036240 Y196.547620 Z-0.125000 I49.196307 J1.892371
G01 X426.036240 Y204.107145 Z-0.125000
G01 X426.036240 Y210.910715 Z-0.125000
G02 X426.076107 Y212.049596 Z-0.125000 I16.287191 J0.000000
G03 X426.036240 Y213.178572 Z-0.125000 I-5.361902 J0.375851
G03 X425.513061 Y215.203528 Z-0.125000 I-2.678031 J0.388152
G02 X424.752640 Y216.958333 Z-0.125000 I3.194333 J2.426382
G02 X424.744810 Y218.090131 Z-0.125000 I3.474694 J0.589965
G03 X424.752640 Y219.226191 Z-0.125000 I-3.820302 J0.594387
G03 X424.469164 Y220.374255 Z-0.125000 I-5.776693 J-0.817333
G02 X424.110840 Y221.494048 Z-0.125000 I16.330841 J5.842949
G01 X423.469030 Y223.761906 Z-0.125000
G03 X423.118571 Y224.883875 Z-0.125000 I-20.957723 J-5.930644
G02 X422.827240 Y226.029763 Z-0.125000 I6.931694 J2.372297
G02 X422.847576 Y226.793618 Z-0.125000 I1.946033 J0.330389
G03 X422.827240 Y227.541666 Z-0.125000 I-1.483667 J0.333967
G03 X422.544639 Y227.956825 Z-0.125000 I-0.763934 J-0.216250
G02 X422.185450 Y228.297620 Z-0.125000 I1.395126 J1.830115
G03 X421.829960 Y229.033914 Z-0.125000 I-7.786805 J-3.305585
G02 X421.543640 Y229.809524 Z-0.125000 I2.521708 J1.371552
G02 X421.335802 Y231.360655 Z-0.125000 I10.088289 J2.141233
G03 X420.901840 Y233.589287 Z-0.125000 I-8.417013 J-0.482404
G03 X420.216440 Y235.079618 Z-0.125000 I-7.504183 J-2.548384
G02 X419.618240 Y236.613096 Z-0.125000 I4.369050 J2.587756
G02 X419.640583 Y237.379486 Z-0.125000 I1.588628 J0.337207
G03 X419.618240 Y238.124999 Z-0.125000 I-1.227345 J0.336309
G03 X419.013864 Y239.287897 Z-0.125000 I-4.100328 J-1.392504
G02 X418.334630 Y240.392857 Z-0.125000 I6.548530 J4.786716
G02 X417.722570 Y241.935445 Z-0.125000 I7.927296 J4.038071
G03 X417.051020 Y243.416666 Z-0.125000 I-5.540694 J-1.619174
G03 X416.409230 Y244.172616 Z-0.125000 I-3.064322 J-1.951156
G02 X415.767410 Y244.928572 Z-0.125000 I2.422933 J2.707555
G02 X415.420216 Y245.659477 Z-0.125000 I2.770027 J1.763733
G03 X415.125620 Y246.440478 Z-0.125000 I-9.723868 J-3.221806
G03 X414.782667 Y247.182332 Z-0.125000 I-11.915854 J-5.058412
G02 X414.483800 Y247.952381 Z-0.125000 I3.917765 J1.963559
G02 X414.483800 Y248.330359 Z-0.125000 I0.667334 J0.188989
G03 X414.483800 Y248.708333 Z-0.125000 I-0.667321 J0.188986
G03 X413.886113 Y250.248434 Z-0.125000 I-8.430198 J-2.385591
G02 X413.200220 Y251.732144 Z-0.125000 I23.132936 J11.594338
G03 X412.844734 Y252.468437 Z-0.125000 I-7.787441 J-3.305855
G02 X412.558410 Y253.244048 Z-0.125000 I2.521947 J1.371656
G02 X412.542932 Y254.750818 Z-0.125000 I3.730557 J0.791785
G03 X412.558410 Y256.267857 Z-0.125000 I-4.198991 J0.801438
G02 X412.119676 Y258.476245 Z-0.125000 I13.609960 J3.851628
G03 X411.916610 Y260.047620 Z-0.125000 I-65.152783 J-7.620755
G03 X411.595709 Y261.559524 Z-0.125000 I-11.165904 J-1.579952
G02 X411.274800 Y263.071429 Z-0.125000 I10.845776 J3.092076
G02 X411.248239 Y263.824076 Z-0.125000 I3.550359 J0.502082
G03 X411.274800 Y264.583332 Z-0.125000 I-10.838720 J0.759256
G01 X411.274800 Y269.119047 Z-0.125000
G03 X411.196515 Y270.271867 Z-0.125000 I-8.527306 J-0.000000
G02 X411.274800 Y271.386905 Z-0.125000 I2.711155 J0.369921
G02 X411.571894 Y271.782698 Z-0.125000 I0.661743 J-0.187324
G03 X411.916610 Y272.142858 Z-0.125000 I-0.537456 J0.859457
G03 X412.237510 Y272.898809 Z-0.125000 I-3.152164 J1.784174
G02 X412.558410 Y273.654762 Z-0.125000 I3.473084 J-1.028229
G02 X413.854010 Y275.573969 Z-0.125000 I12.805321 J-7.247580
G02 X415.125620 Y276.678572 Z-0.125000 I3.620080 J-2.883172
G02 X416.792460 Y276.931720 Z-0.125000 I1.148931 J-1.950887
G03 X418.976420 Y276.678572 Z-0.125000 I2.183960 J9.294154
G01 X420.260030 Y276.678572 Z-0.125000
G03 X420.909361 Y276.749495 Z-0.125000 I-0.000000 J3.007931
G02 X421.543640 Y276.678572 Z-0.125000 I0.213251 J-0.964563
G02 X422.514278 Y275.952161 Z-0.125000 I-1.286632 J-2.730906
G03 X423.469030 Y275.166667 Z-0.125000 I2.971302 J2.638568
G03 X424.427568 Y274.772341 Z-0.125000 I1.858901 J3.156478
G02 X425.394450 Y274.410715 Z-0.125000 I-1.160117 J-4.575210
G02 X427.846717 Y272.812691 Z-0.125000 I-6.004480 J-11.894836
G03 X429.887070 Y271.386905 Z-0.125000 I10.179355 J12.394235
G03 X430.840621 Y270.968581 Z-0.125000 I2.228727 J3.784332
G02 X431.812470 Y270.630953 Z-0.125000 I-3.756521 J-12.380536
G02 X432.769539 Y269.859786 Z-0.125000 I-30.221055 J-38.485795
G03 X433.737870 Y269.119047 Z-0.125000 I10.279722 J12.434870
G03 X434.399310 Y268.783964 Z-0.125000 I1.467596 J2.076605
G02 X435.021480 Y268.363096 Z-0.125000 I-0.442950 J-1.325124
G02 X435.645773 Y267.200042 Z-0.125000 I-2.399240 J-2.036918
G03 X436.305080 Y266.095238 Z-0.125000 I2.434259 J0.703551
G03 X437.576876 Y265.313104 Z-0.125000 I2.346729 J2.390845
G02 X438.872290 Y264.583332 Z-0.125000 I-1.287185 J-3.799502
G02 X439.851074 Y263.482600 Z-0.125000 I-3.291673 J-3.912533
G03 X440.797690 Y262.315478 Z-0.125000 I6.338164 J4.173242
G03 X442.081301 Y261.181547 Z-0.125000 I9.140610 J9.053691
G02 X443.364910 Y260.047620 Z-0.125000 I-7.857093 J-10.187743
G02 X444.994402 Y258.201775 Z-0.125000 I-15.246489 J-15.101608
G03 X446.573920 Y256.267857 Z-0.125000 I51.560658 J40.499919
G01 X449.782910 Y252.488096 Z-0.125000
G03 X450.464884 Y251.781565 Z-0.125000 I5.871591 J4.985111
G02 X451.066520 Y250.976190 Z-0.125000 I-1.794074 J-1.967626
G02 X451.708312 Y249.086315 Z-0.125000 I-7.241761 J-3.513130
G03 X452.350130 Y247.196429 Z-0.125000 I7.882988 J1.623139
G03 X452.967378 Y246.413849 Z-0.125000 I2.090541 J1.014170
G02 X453.633740 Y245.684524 Z-0.125000 I-2.187405 J-2.667644
G02 X454.844670 Y243.274619 Z-0.125000 I-8.540121 J-5.800429
G03 X456.200930 Y240.392857 Z-0.125000 I14.317692 J4.978385
G03 X457.143915 Y239.233924 Z-0.125000 I4.647607 J2.818497
G02 X458.126360 Y238.124999 Z-0.125000 I-5.272653 J-5.660931
G02 X459.855236 Y235.399085 Z-0.125000 I-20.447906 J-14.880041
G03 X461.335350 Y232.833333 Z-0.125000 I59.333192 J32.517935
G03 X462.307470 Y231.331746 Z-0.125000 I26.011833 J15.774465
G02 X463.260750 Y229.809524 Z-0.125000 I-16.633319 J-11.476094
G02 X464.447364 Y227.495981 Z-0.125000 I-27.523876 J-15.578043
G02 X465.186150 Y225.273811 Z-0.125000 I-9.524672 J-4.400483
G02 X465.163808 Y224.507422 Z-0.125000 I-1.588628 J-0.337207
G03 X465.186150 Y223.761906 Z-0.125000 I1.227356 J-0.336311
G03 X466.187798 Y221.933720 Z-0.125000 I5.706196 J1.937887
G02 X467.111580 Y219.982145 Z-0.125000 I-3.650829 J-2.922552
G02 X467.130923 Y218.098680 Z-0.125000 I-4.663070 J-0.989721
G03 X467.111580 Y216.202381 Z-0.125000 I5.248455 J-1.001785
G03 X467.411971 Y215.438175 Z-0.125000 I1.975510 J0.335384
G02 X467.753370 Y214.690478 Z-0.125000 I-2.260944 J-1.484139
G02 X467.753370 Y214.312501 Z-0.125000 I-0.667333 J-0.188989
G03 X467.753370 Y213.934524 Z-0.125000 I0.667333 J-0.188989
G03 X468.094769 Y213.186828 Z-0.125000 I2.602339 J0.736441
G02 X468.395160 Y212.422621 Z-0.125000 I-1.675118 J-1.099590
G02 X468.395167 Y211.288691 Z-0.125000 I-3.338832 J-0.566990
G03 X468.395160 Y210.154763 Z-0.125000 I3.339090 J-0.566983
G03 X468.708073 Y209.396110 Z-0.125000 I1.828925 J0.310497
G02 X469.036980 Y208.642857 Z-0.125000 I-1.669595 J-1.177463
G02 X469.044689 Y207.889477 Z-0.125000 I-1.864713 J-0.395810
G03 X469.036980 Y207.130954 Z-0.125000 I2.097864 J-0.400622
G03 X469.694464 Y204.867445 Z-0.125000 I10.169970 J1.726840
G02 X470.320590 Y202.595239 Z-0.125000 I-8.492995 J-3.562687
G02 X470.360449 Y201.466264 Z-0.125000 I-5.323042 J-0.753126
G03 X470.320590 Y200.327382 Z-0.125000 I16.250404 J-1.138882
G01 X470.320590 Y198.059524 Z-0.125000
G01 X470.320590 Y195.791670 Z-0.125000
G03 X470.360449 Y194.652790 Z-0.125000 I16.290263 J0.000000
G02 X470.320590 Y193.523810 Z-0.125000 I-5.362940 J-0.375852
G02 X470.018964 Y192.383807 Z-0.125000 I-4.955261 J0.701176
G03 X469.678770 Y191.255950 Z-0.125000 I6.544059 J-2.589111
G03 X469.036965 Y187.098215 Z-0.125000 I36.769192 J-7.804246
G02 X468.395160 Y182.940480 Z-0.125000 I-37.410997 J3.646511
G02 X467.753370 Y181.428575 Z-0.125000 I-4.203489 J0.892173
G03 X467.111580 Y179.916670 Z-0.125000 I3.561699 J-2.404078
G03 X467.103834 Y179.163280 Z-0.125000 I1.865190 J-0.395912
G02 X467.111580 Y178.404760 Z-0.125000 I-2.099610 J-0.400741
G02 X466.148866 Y175.002982 Z-0.125000 I-16.229420 J2.755862
G03 X465.186150 Y171.601190 Z-0.125000 I15.266719 J-6.157645
G03 X465.193896 Y170.842675 Z-0.125000 I2.107342 J-0.357776
G02 X465.186150 Y170.089290 Z-0.125000 I-1.872924 J-0.357475
G02 X464.477044 Y168.713608 Z-0.125000 I-2.871240 J0.609405
G03 X463.902550 Y167.821430 Z-0.125000 I2.301502 J-2.113044
G03 X463.530837 Y166.716139 Z-0.125000 I6.975794 J-2.961130
G03 X463.260750 Y165.553570 Z-0.125000 I30.237533 J-7.637423
G03 X463.278928 Y165.166005 Z-0.125000 I0.749240 J-0.159067
G02 X463.260750 Y164.797620 Z-0.125000 I-0.510198 J-0.159465
G02 X462.939860 Y164.419646 Z-0.125000 I-0.766043 J0.325148
G03 X462.618960 Y164.041670 Z-0.125000 I0.445179 J-0.703163
G03 X462.618960 Y163.663695 Z-0.125000 I0.445078 J-0.188988
G02 X462.618960 Y163.285720 Z-0.125000 I-0.445078 J-0.188987
G02 X462.308476 Y162.898256 Z-0.125000 I-0.844277 J0.358408
G03 X461.977150 Y162.529760 Z-0.125000 I0.668840 J-0.934575
G03 X461.298634 Y161.050764 Z-0.125000 I8.347178 J-4.724554
G02 X460.693550 Y159.505950 Z-0.125000 I-27.757084 J9.981196
G01 X460.051750 Y157.994050 Z-0.125000
G02 X459.696262 Y157.257752 Z-0.125000 I-7.784722 J3.304533
G03 X459.409940 Y156.482150 Z-0.125000 I2.521628 J-1.371537
G03 X459.432298 Y155.715754 Z-0.125000 I1.588807 J-0.337174
G02 X459.409940 Y154.970240 Z-0.125000 I-1.227278 J-0.336286
G02 X458.408315 Y153.142055 Z-0.125000 I-5.706087 J1.937770
G03 X457.484540 Y151.190480 Z-0.125000 I3.650898 J-2.922569
G03 X457.520881 Y150.415345 Z-0.125000 I1.498839 J-0.318149
G02 X457.484540 Y149.678570 Z-0.125000 I-1.020705 J-0.318939
G02 X456.272233 Y148.020135 Z-0.125000 I-4.151121 J1.762134
G03 X454.917320 Y145.898810 Z-0.125000 I2.843319 J-3.309420
G03 X454.917331 Y144.764883 Z-0.125000 I2.003398 J-0.566944
G02 X454.917320 Y143.630950 Z-0.125000 I-2.003261 J-0.566947
G02 X454.327656 Y142.459826 Z-0.125000 I-3.328443 J0.941870
G03 X453.633740 Y141.363100 Z-0.125000 I5.532572 J-4.268433
G03 X453.301401 Y140.616846 Z-0.125000 I6.978282 J-3.554857
G02 X452.991920 Y139.851190 Z-0.125000 I-22.243253 J8.545437
G02 X452.339617 Y138.727736 Z-0.125000 I-51.284904 J29.026055
G03 X451.708310 Y137.583330 Z-0.125000 I17.035715 J-10.144026
G03 X451.387425 Y136.827390 Z-0.125000 I5.256645 J-2.677347
G02 X451.066520 Y136.071430 Z-0.125000 I-5.576732 J1.921132
G02 X449.803933 Y133.782632 Z-0.125000 I-35.335910 J17.999965
G03 X448.499310 Y131.535720 Z-0.125000 I101.399927 J-60.378000
G01 X444.648520 Y124.732150 Z-0.125000
G02 X443.996197 Y123.608683 Z-0.125000 I-51.359087 J29.069694
G03 X443.364910 Y122.464290 Z-0.125000 I17.034795 J-10.143308
G03 X442.574902 Y120.768854 Z-0.125000 I23.750122 J-12.098413
G02 X441.439480 Y118.684530 Z-0.125000 I-11.184766 J4.741412
G02 X440.793029 Y117.934429 Z-0.125000 I-3.578346 J2.430272
G03 X440.155900 Y117.172620 Z-0.125000 I2.605876 J-2.826723
G03 X439.808676 Y116.441706 Z-0.125000 I2.769513 J-1.763602
G02 X439.514080 Y115.660720 Z-0.125000 I-9.723471 J3.221739
G02 X439.180422 Y114.913628 Z-0.125000 I-20.273915 J8.606468
G03 X438.872290 Y114.148810 Z-0.125000 I6.714525 J-3.149644
G03 X438.570397 Y113.001915 Z-0.125000 I8.029100 J-2.726649
G02 X438.230480 Y111.880960 Z-0.125000 I-5.386743 J1.021455
G02 X437.920011 Y111.493498 Z-0.125000 I-0.844251 J0.358371
G03 X437.588680 Y111.125000 Z-0.125000 I0.668924 J-0.934661
G03 X437.249422 Y110.385506 Z-0.125000 I4.174121 J-2.362533
G02 X436.946870 Y109.613100 Z-0.125000 I-13.879786 J4.991258
G02 X436.110922 Y107.744129 Z-0.125000 I-49.215802 J20.891664
G02 X435.021480 Y105.833330 Z-0.125000 I-12.698691 J5.974187
G02 X434.395257 Y105.054643 Z-0.125000 I-5.130893 J3.485131
G03 X433.737870 Y104.321430 Z-0.125000 I13.239820 J-12.531927
G02 X433.080485 Y103.588224 Z-0.125000 I-13.890061 J11.792372
G03 X432.454260 Y102.809530 Z-0.125000 I4.503594 J-4.262941
G03 X431.812464 Y101.675591 Z-0.125000 I6.612769 J-4.491344
G02 X431.170680 Y100.541670 Z-0.125000 I-7.254586 J3.357415
G02 X430.544450 Y99.762969 Z-0.125000 I-5.129881 J3.484289
G03 X429.887070 Y99.029760 Z-0.125000 I13.229976 J-12.523008
G01 X427.319850 Y96.005960 Z-0.125000
G01 X424.110840 Y92.226190 Z-0.125000
G02 X423.453450 Y91.492980 Z-0.125000 I-13.894959 J11.796805
G03 X422.827240 Y90.714290 Z-0.125000 I4.503444 J-4.262733
G03 X422.207900 Y89.549090 Z-0.125000 I5.060376 J-3.436947
G02 X421.543640 Y88.446430 Z-0.125000 I-3.711759 J1.484612
G02 X420.914125 Y88.044704 Z-0.125000 I-0.966643 J0.820659
G03 X420.260030 Y87.690480 Z-0.125000 I0.438946 J-1.591562
G03 X419.614459 Y86.942397 Z-0.125000 I2.425655 J-2.745857
G02 X418.976420 Y86.178570 Z-0.125000 I-3.507938 J2.281847
G02 X418.030550 Y85.381168 Z-0.125000 I-7.682001 J8.152617
G02 X417.051020 Y84.666670 Z-0.125000 I-24.332700 J32.329858
G02 X416.389589 Y84.331583 Z-0.125000 I-1.467691 J2.076740
G03 X415.767410 Y83.910720 Z-0.125000 I0.443037 J-1.325289
G03 X415.446515 Y83.154765 Z-0.125000 I1.050877 J-0.892172
G02 X415.125620 Y82.398810 Z-0.125000 I-1.371772 J0.136217
G02 X414.500204 Y81.986974 Z-0.125000 I-1.016761 J0.863259
G03 X413.842010 Y81.642860 Z-0.125000 I0.595703 J-1.940942
G03 X413.508883 Y81.289037 Z-0.125000 I1.005127 J-1.280066
G02 X413.200220 Y80.886910 Z-0.125000 I-4.235004 J2.931165
G02 X412.550456 Y80.533090 Z-0.125000 I-5.588232 J9.488840
G03 X411.916610 Y80.130960 Z-0.125000 I1.680764 J-3.349862
G03 X411.288037 Y79.339481 Z-0.125000 I1.346264 J-1.714508
G02 X410.633010 Y78.619050 Z-0.125000 I-1.489285 J0.696084
G02 X410.317828 Y78.576109 Z-0.125000 I-0.208824 J0.354569
G03 X409.991200 Y78.619050 Z-0.125000 I-0.326628 J-1.220755
G02 X409.012995 Y78.302036 Z-0.125000 I-3.096056 J7.885740
G03 X408.065800 Y77.863100 Z-0.125000 I0.723791 J-2.803351
G03 X407.431975 Y77.084757 Z-0.125000 I1.077557 J-1.524724
G02 X406.782190 Y76.351190 Z-0.125000 I-1.455697 J0.634870
G02 X406.150212 Y76.302818 Z-0.125000 I-0.365319 J0.620304
G03 X405.498580 Y76.351190 Z-0.125000 I-0.402543 J-1.009421
G03 X403.358220 Y75.643312 Z-0.125000 I2.939148 J-12.476655
G02 X400.364170 Y74.839290 Z-0.125000 I-4.248044 J9.842348
G02 X398.759879 Y74.835048 Z-0.125000 I-0.820570 J6.966437
G03 X397.155170 Y74.839290 Z-0.125000 I-0.821678 J-7.308280
G03 X395.229760 Y74.461314 Z-0.125000 I1.199792 J-11.204740
G02 X393.304350 Y74.083330 Z-0.125000 I-3.125341 J10.827249
G02 X391.699860 Y74.083333 Z-0.125000 I-0.802231 J7.492484
G03 X390.095340 Y74.083330 Z-0.125000 I-0.802247 J-7.492370
G03 X388.169671 Y73.710594 Z-0.125000 I1.236599 J-11.549316
G02 X386.244540 Y73.327380 Z-0.125000 I-3.375565 J11.930449
G02 X384.960362 Y73.336669 Z-0.125000 I-0.604969 J5.136476
G03 X383.677330 Y73.327380 Z-0.125000 I-0.608305 J-4.591948
G03 X382.393197 Y72.956410 Z-0.125000 I0.722930 J-4.910496
G02 X381.110120 Y72.571430 Z-0.125000 I-2.175999 J4.921620
G02 X380.148909 Y72.531284 Z-0.125000 I-0.640394 J3.805765
G03 X379.184720 Y72.571430 Z-0.125000 I-0.964189 J-11.558545
G01 X377.259320 Y72.571430 Z-0.125000
G03 X376.295106 Y72.531285 Z-0.125000 I-0.000000 J-11.599351
G02 X375.333900 Y72.571430 Z-0.125000 I-0.320812 J3.845970
G02 X374.048279 Y72.927456 Z-0.125000 I1.071707 J6.369191
G03 X372.766700 Y73.327380 Z-0.125000 I-3.447072 J-8.792926
G03 X366.674954 Y74.542460 Z-0.125000 I-20.661853 J-87.709315
G02 X360.572450 Y75.595240 Z-0.125000 I59.395108 J362.500687
G02 X358.647049 Y75.973219 Z-0.125000 I11.998934 J66.214739
G03 X356.721650 Y76.351190 Z-0.125000 I-13.920722 J-65.819676
G03 X354.472587 Y76.699553 Z-0.125000 I-7.928416 J-43.752309
G02 X352.229040 Y77.107150 Z-0.125000 I2.821354 J21.908061
G02 X351.267359 Y77.495143 Z-0.125000 I0.784503 J3.330285
G03 X350.303640 Y77.863100 Z-0.125000 I-1.548001 J-2.608358
G03 X349.336995 Y77.831611 Z-0.125000 I-0.414975 J-2.113874
G02 X348.378220 Y77.863100 Z-0.125000 I-0.426972 J1.611687
G02 X347.083385 Y78.563909 Z-0.125000 I1.376076 J4.089068
G03 X345.811030 Y79.375000 Z-0.125000 I-4.676543 J-5.932560
G03 X344.844142 Y79.736633 Z-0.125000 I-2.127042 J-4.213630
G02 X343.885600 Y80.130960 Z-0.125000 I0.900417 J3.550948
G02 X340.676639 Y82.398790 Z-0.125000 I12.029383 J20.425716
G03 X337.467590 Y84.666670 Z-0.125000 I-15.238228 J-18.157748
G03 X334.239701 Y86.351130 Z-0.125000 I-18.027092 J-30.609873
G02 X330.407760 Y88.446430 Z-0.125000 I12.881726 J28.110078
G02 X328.792873 Y89.549495 Z-0.125000 I18.745413 J29.176908
G02 X327.198760 Y90.714290 Z-0.125000 I162.863535 J224.564732
G02 X326.246473 Y91.501887 Z-0.125000 I6.493585 J8.820930
G03 X325.273360 Y92.226190 Z-0.125000 I-3.838911 J-4.141791
G03 X324.316395 Y92.627454 Z-0.125000 I-1.953500 J-3.317102
G02 X323.347960 Y92.982150 Z-0.125000 I1.497963 J5.589341
G03 X321.881483 Y93.618867 Z-0.125000 I-11.108448 J-23.577667
G03 X319.497140 Y94.494050 Z-0.125000 I-17.299595 J-43.445373
G02 X318.538736 Y94.906676 Z-0.125000 I2.033521 J6.042597
G03 X317.571740 Y95.250000 Z-0.125000 I-1.640338 J-3.086661
G03 X316.608142 Y95.240976 Z-0.125000 I-0.459901 J-2.342692
G02 X315.646320 Y95.250000 Z-0.125000 I-0.460917 J2.135462
G02 X313.779896 Y96.313583 Z-0.125000 I0.871228 J3.698306
G03 X311.795520 Y97.517860 Z-0.125000 I-3.263982 J-3.141263
G03 X311.156737 Y97.563885 Z-0.125000 I-0.425056 J-1.443516
G02 X310.511920 Y97.517860 Z-0.125000 I-0.644817 J4.493976
G01 X308.586520 Y97.517860 Z-0.125000
G03 X307.621766 Y97.471169 Z-0.125000 I0.000000 J-9.990520
G02 X306.661090 Y97.517860 Z-0.125000 I-0.320780 J3.306313
G02 X305.699752 Y97.913003 Z-0.125000 I0.513710 J2.616784
G03 X304.735690 Y98.273810 Z-0.125000 I-1.259526 J-1.897032
G03 X302.170911 Y98.357361 Z-0.125000 I-1.709182 J-13.059479
G02 X299.601290 Y98.273810 Z-0.125000 I-2.569621 J39.472542
G02 X298.487907 Y98.399557 Z-0.125000 I0.000000 J4.991907
G03 X297.675870 Y98.273810 Z-0.125000 I-0.247945 J-1.083669
G03 X297.348364 Y97.913596 Z-0.125000 I0.417145 J-0.708259
G02 X297.034080 Y97.517860 Z-0.125000 I-0.987401 J0.461504
G02 X296.375886 Y97.173746 Z-0.125000 I-1.253897 J1.596828
G03 X295.750470 Y96.761910 Z-0.125000 I0.391345 J-1.275095
G03 X295.409882 Y96.031502 Z-0.125000 I1.161904 J-0.986406
G02 X295.108680 Y95.250000 Z-0.125000 I-2.087116 J0.355608
G03 X294.012672 Y93.642201 Z-0.125000 I7.037346 J-5.974698
G02 X293.183250 Y92.226190 Z-0.125000 I-19.472867 J10.455223
G02 X292.496710 Y91.509430 Z-0.125000 I-2.140090 J1.362681
G03 X291.899670 Y90.714290 Z-0.125000 I0.914651 J-1.308494
G03 X291.899666 Y89.580359 Z-0.125000 I1.669472 J-0.566980
G02 X291.899670 Y88.446430 Z-0.125000 I-1.669503 J-0.566961
G02 X290.933853 Y86.714413 Z-0.125000 I-5.207192 J1.768372
G03 X289.974250 Y84.666670 Z-0.125000 I3.500926 J-2.889300
G03 X289.643234 Y82.402036 Z-0.125000 I27.210290 J-5.133777
G02 X289.332450 Y80.130960 Z-0.125000 I-35.410736 J3.688949
G02 X288.983658 Y78.625597 Z-0.125000 I-12.810311 J2.175058
G03 X288.690650 Y77.107150 Z-0.125000 I7.692048 J-2.271792
G03 X288.480640 Y73.343036 Z-0.125000 I48.984249 J-4.620874
G02 X288.048850 Y69.547620 Z-0.125000 I-19.950811 J0.347460
G02 X287.368492 Y67.291926 Z-0.125000 I-13.768390 J2.922343
G03 X286.765250 Y65.011910 Z-0.125000 I9.307732 J-3.682432
G03 X286.698812 Y63.130284 Z-0.125000 I8.870906 J-1.255209
G02 X286.765250 Y61.232150 Z-0.125000 I-27.081464 J-1.898134
G01 X286.765250 Y59.720240 Z-0.125000
G02 X286.725685 Y58.957008 Z-0.125000 I-7.381454 J0.000000
G03 X286.765250 Y58.208340 Z-0.125000 I2.393962 J-0.248866
G03 X287.474363 Y56.832656 Z-0.125000 I2.871263 J0.609425
G02 X288.048850 Y55.940480 Z-0.125000 I-2.301403 J-2.112960
G02 X288.048850 Y55.562505 Z-0.125000 I-0.445078 J-0.188988
G03 X288.048850 Y55.184530 Z-0.125000 I0.445078 J-0.188988
G03 X288.690650 Y54.428575 Z-0.125000 I1.532227 J0.650430
G02 X289.332450 Y53.672620 Z-0.125000 I-0.890427 J-1.406385
G02 X289.516541 Y52.977566 Z-0.125000 I-2.329490 J-0.988893
G03 X289.974250 Y52.160720 Z-0.125000 I1.210227 J0.141476
G03 X290.632464 Y51.816603 Z-0.125000 I1.253998 J1.597037
G02 X291.257850 Y51.404770 Z-0.125000 I-0.391326 J-1.274999
G02 X291.257850 Y51.026779 Z-0.125000 I-0.222629 J-0.188996
G03 X291.257850 Y50.648810 Z-0.125000 I0.222618 J-0.188985
G03 X291.899673 Y50.270834 Z-0.125000 I0.864447 J0.733961
G02 X292.541460 Y49.892860 Z-0.125000 I-0.222599 J-1.111818
G02 X292.581744 Y49.547907 Z-0.125000 I-0.238775 J-0.202713
G03 X292.541460 Y49.136910 Z-0.125000 I0.503949 J-0.256868
G03 X292.794104 Y48.316282 Z-0.125000 I18.057837 J5.110205
G03 X293.183250 Y47.625000 Z-0.125000 I1.980409 J0.659666
G03 X293.812796 Y47.223271 Z-0.125000 I0.966722 J0.820799
G02 X294.466860 Y46.869050 Z-0.125000 I-0.438920 J-1.591429
G02 X295.108665 Y46.113100 Z-0.125000 I-2.298297 J-2.601687
G03 X295.750470 Y45.357150 Z-0.125000 I2.940102 J1.845737
G03 X296.384921 Y44.960082 Z-0.125000 I1.514210 J1.714056
G02 X297.034080 Y44.601190 Z-0.125000 I-1.297292 J-3.113063
G02 X297.996774 Y43.845242 Z-0.125000 I-7.003712 J-9.910138
G03 X298.959480 Y43.089290 Z-0.125000 I7.965922 J9.153635
G03 X299.608630 Y42.730399 Z-0.125000 I1.946330 J2.753932
G02 X300.243080 Y42.333340 Z-0.125000 I-0.879776 J-2.111185
G02 X300.888648 Y41.585253 Z-0.125000 I-2.425558 J-2.745748
G03 X301.526690 Y40.821430 Z-0.125000 I3.507482 J2.281496
G03 X302.478178 Y40.039256 Z-0.125000 I6.247907 J6.630557
G02 X303.452090 Y39.309530 Z-0.125000 I-15.624221 J-21.867258
G02 X304.409169 Y38.538359 Z-0.125000 I-30.198095 J-38.457526
G03 X305.377510 Y37.797620 Z-0.125000 I10.276746 J12.431100
G03 X306.026667 Y37.438731 Z-0.125000 I1.946648 J2.754544
G02 X306.661090 Y37.041670 Z-0.125000 I-0.879754 J-2.111041
G02 X307.283196 Y36.235630 Z-0.125000 I-1.785369 J-2.021050
G03 X307.944700 Y35.529770 Z-0.125000 I1.532788 J0.773571
G03 X308.576687 Y35.481396 Z-0.125000 I0.365324 J0.620301
G02 X309.228310 Y35.529770 Z-0.125000 I0.402540 J-1.009395
G02 X310.936132 Y34.931800 Z-0.125000 I0.266171 J-1.977589
G03 X312.437320 Y34.017860 Z-0.125000 I2.464879 J2.358820
G03 X313.079113 Y34.017859 Z-0.125000 I0.320898 J1.089762
G02 X313.720920 Y34.017860 Z-0.125000 I0.320905 J-1.089800
G02 X314.368318 Y33.669861 Z-0.125000 I-0.505463 J-1.716526
G03 X315.004530 Y33.261910 Z-0.125000 I1.879583 J2.231196
G03 X316.809133 Y32.456166 Z-0.125000 I20.680724 J43.894347
G02 X318.213530 Y31.750000 Z-0.125000 I-4.612512 J-10.922779
G03 X318.867411 Y31.406287 Z-0.125000 I3.883692 J6.594524
G02 X319.497140 Y30.994060 Z-0.125000 I-1.107241 J-2.378561
G02 X320.119231 Y30.188019 Z-0.125000 I-1.785506 J-2.021110
G03 X320.780750 Y29.482150 Z-0.125000 I1.532785 J0.773567
G03 X321.413774 Y29.442665 Z-0.125000 I0.355386 J0.603480
G02 X322.064360 Y29.482150 Z-0.125000 I0.379885 J-0.879754
G02 X323.353800 Y28.760690 Z-0.125000 I-0.940479 J-3.193900
G03 X324.631550 Y27.970240 Z-0.125000 I2.812451 J3.118326
G03 X324.955724 Y27.982929 Z-0.125000 I0.147619 J0.375957
G02 X325.273360 Y27.970240 Z-0.125000 I0.146989 J-0.302436
G02 X325.613155 Y27.634148 Z-0.125000 I-0.494574 J-0.839839
G03 X325.915150 Y27.214300 Z-0.125000 I2.756663 J1.664322
G03 X326.260938 Y26.865041 Z-0.125000 I2.451463 J2.081297
G02 X326.556970 Y26.458330 Z-0.125000 I-0.729542 J-0.842102
G02 X326.528477 Y26.054007 Z-0.125000 I-0.410346 J-0.174247
G03 X326.556970 Y25.702390 Z-0.125000 I0.258885 J-0.155984
G03 X326.877880 Y25.702386 Z-0.125000 I0.160457 J0.136208
G02 X327.198760 Y25.702390 Z-0.125000 I0.160442 J-0.136202
G02 X327.227245 Y25.350762 Z-0.125000 I-0.230466 J-0.195638
G03 X327.198760 Y24.946420 Z-0.125000 I0.381946 J-0.230082
G03 X327.867355 Y24.207066 Z-0.125000 I1.400591 J0.594569
G02 X328.482370 Y23.434520 Z-0.125000 I-0.614951 J-1.120631
G02 X328.482366 Y22.678576 Z-0.125000 I-1.335718 J-0.377969
G03 X328.482370 Y21.922630 Z-0.125000 I1.335672 J-0.377963
G03 X328.803280 Y21.544649 Z-0.125000 I0.574652 J0.162666
G02 X329.124160 Y21.166670 Z-0.125000 I-0.253709 J-0.540576
G02 X329.306299 Y18.365660 Z-0.125000 I-6.449748 J-1.825830
G03 X329.124160 Y15.875000 Z-0.125000 I16.938186 J-2.490660
G03 X329.277004 Y13.253221 Z-0.125000 I22.562504 J-0.000000
G02 X329.124160 Y11.339300 Z-0.125000 I-4.892313 J-0.572368
G02 X328.509150 Y10.566748 Z-0.125000 I-1.229954 J0.348063
G03 X327.840570 Y9.827390 Z-0.125000 I0.731966 J-1.333864
G03 X327.840570 Y9.449405 Z-0.125000 I0.445130 J-0.188992
G02 X327.840570 Y9.071420 Z-0.125000 I-0.445130 J-0.188992
G02 X327.292331 Y8.182635 Z-0.125000 I-3.189615 J1.354002
G03 X326.556970 Y6.803570 Z-0.125000 I2.803693 J-2.380610
G03 X326.579551 Y6.410351 Z-0.125000 I0.579097 J-0.164003
G02 X326.556970 Y6.047630 Z-0.125000 I-0.383992 J-0.158158
G02 X325.923767 Y5.281903 Z-0.125000 I-2.470424 J1.398198
G03 X325.273360 Y4.535730 Z-0.125000 I2.144416 J-2.525748
G03 X324.972147 Y3.754208 Z-0.125000 I1.785784 J-1.137082
G02 X324.631550 Y3.023820 Z-0.125000 I-1.502283 J0.255942
G02 X323.989755 Y2.645835 Z-0.125000 I-0.864376 J0.733799
G03 X323.347960 Y2.267850 Z-0.125000 I0.222581 J-1.111784
G03 X322.525407 Y0.857409 Z-0.125000 I3.555390 J-3.018535
G02 X321.422540 Y-0.755940 Z-0.125000 I-3.742449 J1.374667
G02 X320.780748 Y-1.133923 Z-0.125000 I-1.296445 J1.467429
G03 X320.138930 Y-1.511910 Z-0.125000 I0.654718 J-1.845595
G03 X319.503594 Y-2.282425 Z-0.125000 I2.105208 J-2.383067
G02 X318.855350 Y-3.023820 Z-0.125000 I-2.287444 J1.345945
G02 X318.538702 Y-3.034508 Z-0.125000 I-0.165626 J0.210982
G03 X318.213530 Y-3.023820 Z-0.125000 I-0.171012 J-0.251010
G03 X316.625207 Y-3.971246 Z-0.125000 I-0.330052 J-1.251774
G02 X315.646320 Y-5.291670 Z-0.125000 I-2.048307 J0.495440
G02 X314.974659 Y-5.472384 Z-0.125000 I-0.663073 J1.125906
G03 X313.720920 Y-6.047610 Z-0.125000 I-0.010716 J-1.630557
G03 X313.752140 Y-6.472372 Z-0.125000 I0.231500 J-0.196513
G02 X313.720920 Y-6.803580 Z-0.125000 I-0.135403 J-0.154312
G02 X313.085600 Y-6.828947 Z-0.125000 I-0.341307 J0.579573
G03 X312.437320 Y-6.803580 Z-0.125000 I-0.353061 J-0.726433
G03 X312.090926 Y-7.117123 Z-0.125000 I0.241338 J-0.614739
G02 X311.795520 Y-7.559520 Z-0.125000 I-2.059833 J1.055605
G03 X311.160779 Y-7.967521 Z-0.125000 I4.905793 J-8.329862
G02 X310.511920 Y-8.315480 Z-0.125000 I-1.790901 J2.560632
G02 X310.193021 Y-8.329967 Z-0.125000 I-0.180680 J0.460110
G03 X309.870120 Y-8.315480 Z-0.125000 I-0.191234 J-0.656632
G03 X308.265614 Y-8.693441 Z-0.125000 I4.231649 J-21.566079
G02 X306.661090 Y-9.071420 Z-0.125000 I-5.837485 J21.192946
G02 X304.851906 Y-9.164463 Z-0.125000 I-1.228923 J6.259969
G03 X302.810290 Y-9.071420 Z-0.125000 I-2.041616 J-22.352759
G01 X299.601290 Y-9.071420 Z-0.125000
G03 X298.636549 Y-9.118110 Z-0.125000 I-0.000000 J-9.990313
G02 X297.675870 Y-9.071420 Z-0.125000 I-0.320782 J3.306313
G02 X296.709681 Y-8.722783 Z-0.125000 I0.651363 J3.318279
G03 X295.750470 Y-8.315480 Z-0.125000 I-2.567953 J-4.714470
G03 X291.905355 Y-7.138467 Z-0.125000 I-82.619338 J-263.035052
G03 X288.048850 Y-6.047610 Z-0.125000 I-40.618489 J-136.236124
G03 X284.840380 Y-5.287092 Z-0.125000 I-14.797544 J-55.279607
G02 X281.630840 Y-4.535700 Z-0.125000 I12.816680 J61.976336
G02 X279.063190 Y-3.783512 Z-0.125000 I11.688931 J44.659580
G03 X276.496410 Y-3.023820 Z-0.125000 I-15.777376 J-48.591135
G03 X268.067400 Y-0.992089 Z-0.125000 I-44.784995 J-167.298309
G02 X263.660380 Y-0.000000 Z-0.125000 I47.746484 J222.381927
G02 X262.376780 Y0.377985 Z-0.125000 I2.789913 J11.842753
G03 X261.093180 Y0.755970 Z-0.125000 I-4.073513 J-11.464768
G03 X257.882732 Y1.436479 Z-0.125000 I-16.743043 J-71.075634
G02 X255.316950 Y2.267850 Z-0.125000 I1.974025 J10.467201
G02 X254.670759 Y2.628553 Z-0.125000 I2.294601 J4.869888
G03 X254.033340 Y3.023820 Z-0.125000 I-8.972551 J-13.757820
G03 X253.379484 Y3.367528 Z-0.125000 I-3.882099 J-6.591358
G02 X252.749740 Y3.779760 Z-0.125000 I1.107196 J2.378531
G02 X252.127655 Y4.585794 Z-0.125000 I1.785582 J2.021160
G03 X251.466150 Y5.291670 Z-0.125000 I-1.532891 J-0.773635
G03 X250.824336 Y5.291671 Z-0.125000 I-0.320908 J-0.544885
G02 X250.182540 Y5.291670 Z-0.125000 I-0.320899 J0.544874
G02 X249.466539 Y6.005261 Z-0.125000 I1.033120 J1.752615
G03 X247.615340 Y8.315480 Z-0.125000 I-9.150805 J-5.435820
G02 X245.936297 Y10.083798 Z-0.125000 I15.047592 J15.969202
G02 X244.406330 Y12.095240 Z-0.125000 I17.965985 J15.253090
G03 X242.954216 Y13.544423 Z-0.125000 I-4.498145 J-3.055124
G02 X241.197320 Y15.119060 Z-0.125000 I4.869003 J7.200021
G02 X240.526489 Y16.213713 Z-0.125000 I3.187858 J2.706476
G03 X239.913710 Y17.386910 Z-0.125000 I-7.137742 J-2.981525
G03 X239.263296 Y18.133105 Z-0.125000 I-2.795130 J-1.779789
G02 X238.630100 Y18.898820 Z-0.125000 I1.837503 J2.164157
G02 X238.309204 Y19.654749 Z-0.125000 I3.152418 J1.784304
G03 X237.988310 Y20.410730 Z-0.125000 I-3.474320 J-1.028673
G03 X237.656992 Y20.779200 Z-0.125000 I-1.000223 J-0.566183
G02 X237.346500 Y21.166670 Z-0.125000 I0.533829 J0.745913
G02 X237.274019 Y22.763408 Z-0.125000 I2.110333 J0.895808
G03 X237.346500 Y24.190480 Z-0.125000 I-2.646378 J0.849786
G03 X237.025605 Y24.946435 Z-0.125000 I-2.101763 J-0.446091
G02 X236.704710 Y25.702390 Z-0.125000 I1.780868 J1.202046
G02 X236.665150 Y26.451062 Z-0.125000 I2.354688 J0.499805
G03 X236.704710 Y27.214300 Z-0.125000 I-7.342791 J0.763238
G02 X236.784220 Y29.115971 Z-0.125000 I22.781193 J0.000000
G03 X236.704710 Y30.994060 Z-0.125000 I-7.459963 J0.624905
G03 X236.378294 Y31.748484 Z-0.125000 I-1.703440 J-0.289199
G02 X236.062900 Y32.505960 Z-0.125000 I1.301280 J0.986218
G02 X236.009745 Y34.011256 Z-0.125000 I7.096178 J1.004165
G03 X236.062900 Y35.529770 Z-0.125000 I-21.663732 J1.518514
G01 X236.062900 Y37.797620 Z-0.125000
G01 X236.062900 Y45.357150 Z-0.125000
G01 X236.062900 Y61.988100 Z-0.125000
G01 X236.062900 Y66.523810 Z-0.125000
G03 X236.015192 Y67.664822 Z-0.125000 I-13.668489 J0.000000
G02 X236.062900 Y68.791670 Z-0.125000 I4.475825 J0.374940
G02 X236.375812 Y69.550321 Z-0.125000 I1.828922 J-0.310497
G03 X236.704710 Y70.303570 Z-0.125000 I-1.669512 J1.177404
G03 X236.704698 Y71.815480 Z-0.125000 I-3.561814 J0.755926
G02 X236.704710 Y73.327380 Z-0.125000 I3.561514 J0.755924
G02 X237.413818 Y74.703063 Z-0.125000 I2.871233 J-0.609403
G03 X237.988310 Y75.595240 Z-0.125000 I-2.301461 J2.113013
G03 X237.988310 Y75.973215 Z-0.125000 I-0.445078 J0.188987
G02 X237.988310 Y76.351190 Z-0.125000 I0.445078 J0.188988
G02 X238.322604 Y76.720872 Z-0.125000 I0.700280 J-0.297258
G03 X238.630100 Y77.107150 Z-0.125000 I-0.307455 J0.560278
G03 X238.606358 Y77.876971 Z-0.125000 I-1.227635 J0.347415
G02 X238.630100 Y78.619050 Z-0.125000 I0.970114 J0.340381
G02 X238.908897 Y78.669724 Z-0.125000 I0.156047 J-0.066260
G03 X239.271900 Y78.619050 Z-0.125000 I0.213420 J0.203309
G03 X240.063872 Y79.670095 Z-0.125000 I-0.872318 J1.481202
G02 X240.555500 Y80.886910 Z-0.125000 I4.861886 J-1.256616
G02 X240.876415 Y81.264886 Z-0.125000 I1.149126 J-0.650424
G03 X241.197320 Y81.642860 Z-0.125000 I-0.828142 J1.028314
G03 X241.675773 Y83.097305 Z-0.125000 I-3.399913 J1.924352
G02 X241.839110 Y83.910720 Z-0.125000 I5.312563 J-0.643675
G02 X242.448731 Y85.819370 Z-0.125000 I28.901202 J-8.179327
G02 X243.122720 Y87.690480 Z-0.125000 I290.632170 J-103.631209
G02 X243.469207 Y88.433223 Z-0.125000 I4.405468 J-1.602947
G03 X243.764510 Y89.202380 Z-0.125000 I-2.274913 J1.314675
G03 X243.764521 Y89.958337 Z-0.125000 I-1.780826 J0.378004
G02 X243.764510 Y90.714290 Z-0.125000 I1.781072 J0.378003
G02 X244.406320 Y92.226193 Z-0.125000 I4.203584 J-0.892150
G03 X245.048120 Y93.738100 Z-0.125000 I-3.561656 J2.403973
G03 X245.162379 Y95.567318 Z-0.125000 I-6.129817 J1.301067
G02 X245.048120 Y98.273810 Z-0.125000 I31.997572 J2.706492
G03 X244.830963 Y98.995411 Z-0.125000 I-1.307498 J-0.000000
G02 X244.406330 Y99.785720 Z-0.125000 I4.089831 J2.706698
G02 X244.434813 Y100.190055 Z-0.125000 I0.410396 J0.174261
G03 X244.406330 Y100.541670 Z-0.125000 I-0.258929 J0.155986
G03 X244.085435 Y100.541675 Z-0.125000 I-0.160450 J-0.136217
G02 X243.764510 Y100.541670 Z-0.125000 I-0.160465 J0.136239
G02 X243.736027 Y100.893285 Z-0.125000 I0.230445 J0.195629
G03 X243.764510 Y101.297620 Z-0.125000 I-0.381912 J0.230075
G03 X243.468508 Y101.704318 Z-0.125000 I-1.025391 J-0.435230
G02 X243.122720 Y102.053570 Z-0.125000 I2.105900 J2.430822
G02 X242.820705 Y102.473448 Z-0.125000 I2.455937 J2.085095
G03 X242.480930 Y102.809530 Z-0.125000 I-0.834464 J-0.503839
G03 X240.880324 Y102.883502 Z-0.125000 I-0.870312 J-1.477861
G02 X238.630100 Y102.809530 Z-0.125000 I-1.210914 J2.573120
G02 X237.218748 Y103.543741 Z-0.125000 I2.758955 J7.027065
G03 X235.421110 Y104.321430 Z-0.125000 I-3.073313 J-4.637527
G03 X234.781247 Y104.358578 Z-0.125000 I-0.426050 J-1.809291
G02 X234.137500 Y104.321430 Z-0.125000 I-0.643747 J5.559251
G01 X230.928490 Y104.321430 Z-0.125000
G02 X229.657140 Y104.466951 Z-0.125000 I0.000000 J5.626378
G03 X229.003080 Y104.321430 Z-0.125000 I-0.175187 J-0.755239
G02 X228.820781 Y104.188547 Z-0.125000 I-1.876637 J2.383031
G03 X226.435870 Y101.297620 Z-0.125000 I3.680988 J-5.465879
G03 X226.435870 Y100.919645 Z-0.125000 I0.445078 J-0.188987
G02 X226.435870 Y100.541670 Z-0.125000 I-0.445078 J-0.188988
G02 X226.114967 Y100.163689 Z-0.125000 I-0.766091 J0.325193
G03 X225.794070 Y99.785720 Z-0.125000 I0.445185 J-0.703169
G03 X225.822560 Y99.381385 Z-0.125000 I0.410383 J-0.174255
G02 X225.794070 Y99.029760 Z-0.125000 I-0.258914 J-0.155988
G02 X225.152264 Y98.651785 Z-0.125000 I-0.864396 J0.733883
G03 X224.510470 Y98.273810 Z-0.125000 I0.222582 J-1.111819
G03 X223.923979 Y96.667768 Z-0.125000 I0.427781 J-1.066324
G02 X223.868670 Y95.250000 Z-0.125000 I-1.243074 J-0.661469
G02 X222.930263 Y94.459843 Z-0.125000 I-1.728791 J1.100834
G03 X221.943260 Y93.738100 Z-0.125000 I1.010519 J-2.417661
G03 X221.279005 Y92.635442 Z-0.125000 I3.047446 J-2.587227
G02 X220.659660 Y91.470240 Z-0.125000 I-5.679367 J2.271576
G02 X218.704351 Y89.201211 Z-0.125000 I-10.830620 J7.356161
G03 X216.808840 Y86.934530 Z-0.125000 I7.758201 J-8.413695
G03 X216.183272 Y85.669940 Z-0.125000 I0.146989 J-0.859736
G02 X216.167040 Y84.666670 Z-0.125000 I-0.928814 J-0.486739
G02 X215.533847 Y83.900951 Z-0.125000 I-2.470681 J1.398408
G03 X214.883430 Y83.154760 Z-0.125000 I2.144826 J-2.526100
G03 X214.257862 Y81.890182 Z-0.125000 I0.146984 J-0.859729
G02 X214.241630 Y80.886910 Z-0.125000 I-0.928818 J-0.486739
G02 X213.563702 Y80.160335 Z-0.125000 I-1.851341 J1.047830
G03 X212.958030 Y79.375000 Z-0.125000 I0.845167 J-1.278040
G03 X212.943406 Y78.248726 Z-0.125000 I1.724435 J-0.585622
G02 X212.958030 Y77.107150 Z-0.125000 I-1.915211 J-0.595416
G02 X212.350784 Y75.951139 Z-0.125000 I-3.043753 J0.861370
G03 X211.674430 Y74.839290 Z-0.125000 I3.467268 J-2.870831
G03 X211.320873 Y73.725944 Z-0.125000 I5.730524 J-2.432610
G02 X211.032630 Y72.571430 Z-0.125000 I-18.680679 J4.050695
G02 X210.682162 Y71.449460 Z-0.125000 I-20.962178 J5.932190
G03 X210.390830 Y70.303570 Z-0.125000 I6.931651 J-2.372291
G03 X210.359030 Y69.552345 Z-0.125000 I2.952527 J-0.501269
G02 X210.390830 Y68.791670 Z-0.125000 I-9.081984 J-0.760675
G01 X210.390830 Y66.523810 Z-0.125000
G03 X210.430387 Y65.760576 Z-0.125000 I7.382862 J0.000000
G02 X210.390830 Y65.011910 Z-0.125000 I-2.394407 J-0.248865
G02 X210.104503 Y64.236295 Z-0.125000 I-2.808574 J0.596160
G03 X209.749030 Y63.500000 Z-0.125000 I7.431599 J-4.041825
G02 X209.398556 Y62.378027 Z-0.125000 I-20.968217 J5.934176
G03 X209.107220 Y61.232150 Z-0.125000 I6.932357 J-2.372507
G03 X209.107223 Y58.578263 Z-0.125000 I7.814850 J-1.326935
G02 X209.107220 Y55.940480 Z-0.125000 I-7.767321 J-1.318883
G02 X208.828912 Y55.162147 Z-0.125000 I-2.337202 J0.396788
G03 X208.465420 Y54.428570 Z-0.125000 I6.071239 J-3.465181
G03 X207.715304 Y52.624905 Z-0.125000 I122.735685 J-52.101637
G03 X207.181820 Y50.648810 Z-0.125000 I7.718008 J-3.143683
G03 X207.170548 Y48.383557 Z-0.125000 I8.296104 J-1.173937
G02 X207.181820 Y46.113100 Z-0.125000 I-8.981286 J-1.179846
G02 X206.868398 Y44.599441 Z-0.125000 I-9.201027 J1.115910
G03 X206.540020 Y43.089290 Z-0.125000 I10.083586 J-2.983423
G03 X206.552955 Y42.329343 Z-0.125000 I2.395900 J-0.339304
G02 X206.540020 Y41.577380 Z-0.125000 I-1.941403 J-0.342698
G02 X205.898215 Y40.065475 Z-0.125000 I-4.203401 J0.892172
G03 X205.256410 Y38.553570 Z-0.125000 I3.561596 J-2.404077
G03 X205.256410 Y37.797620 Z-0.125000 I1.780857 J-0.377975
G02 X205.256410 Y37.041670 Z-0.125000 I-1.780857 J-0.377975
G02 X204.957309 Y36.274932 Z-0.125000 I-2.483614 J0.527137
G03 X204.614610 Y35.529770 Z-0.125000 I3.409375 J-2.019354
G03 X204.293709 Y34.395833 Z-0.125000 I10.820443 J-3.674528
G02 X203.972810 Y33.261910 Z-0.125000 I-11.140764 J2.540459
G02 X203.642618 Y32.511190 Z-0.125000 I-4.470018 J1.518089
G03 X203.331000 Y31.750000 Z-0.125000 I3.204793 J-1.756369
G03 X203.331000 Y31.372030 Z-0.125000 I0.667310 J-0.188985
G02 X203.331000 Y30.994060 Z-0.125000 I-0.667310 J-0.188985
G02 X202.539164 Y28.167953 Z-0.125000 I-4.763404 J-0.189344
G03 X201.405600 Y25.702390 Z-0.125000 I7.315006 J-4.856502
G03 X201.405599 Y25.324413 Z-0.125000 I0.667330 J-0.188993
G02 X201.405600 Y24.946420 Z-0.125000 I-0.667371 J-0.188996
G02 X201.084700 Y24.190470 Z-0.125000 I-3.152490 J0.892143
G03 X200.763800 Y23.434520 Z-0.125000 I2.831590 J-1.648093
G03 X200.775666 Y23.049602 Z-0.125000 I0.613469 J-0.173730
G02 X200.763800 Y22.678570 Z-0.125000 I-0.484840 J-0.170200
G02 X200.013603 Y22.174190 Z-0.125000 I-0.762183 J0.323546
G03 X199.480200 Y21.922630 Z-0.125000 I0.010325 J-0.713182
G03 X199.451711 Y21.571005 Z-0.125000 I0.230437 J-0.195637
G02 X199.480200 Y21.166670 Z-0.125000 I-0.381911 J-0.230080
G02 X199.169713 Y20.779200 Z-0.125000 I-0.844270 J0.358394
G03 X198.838400 Y20.410730 Z-0.125000 I0.668835 J-0.934576
G03 X198.517487 Y19.654745 Z-0.125000 I3.153042 J-1.784596
G02 X198.196590 Y18.898820 Z-0.125000 I-3.473384 J1.028442
G02 X197.865261 Y18.530312 Z-0.125000 I-1.000183 J0.566069
G03 X197.554790 Y18.142850 Z-0.125000 I0.533773 J-0.745830
G03 X197.613470 Y17.694954 Z-0.125000 I0.409957 J-0.174082
G02 X197.554790 Y17.386910 Z-0.125000 I-0.164552 J-0.128265
G02 X196.912983 Y17.386912 Z-0.125000 I-0.320903 J0.544923
G03 X196.271190 Y17.386910 Z-0.125000 I-0.320894 J-0.544904
G02 X195.829472 Y16.902590 Z-0.125000 I-0.486374 J0.000000
G03 X194.987580 Y16.630970 Z-0.125000 I0.185971 J-2.016958
G03 X194.956376 Y16.299715 Z-0.125000 I0.104216 J-0.176914
G02 X194.987580 Y15.875000 Z-0.125000 I-0.200239 J-0.228216
G02 X194.677048 Y15.858864 Z-0.125000 I-0.162870 J0.138280
G03 X194.345780 Y15.875000 Z-0.125000 I-0.174938 J-0.182940
G03 X193.693758 Y15.141498 Z-0.125000 I1.707118 J-2.174034
G02 X193.062180 Y14.363090 Z-0.125000 I-3.215017 J1.963145
G02 X191.200145 Y12.994695 Z-0.125000 I-6.514522 J6.913525
G03 X189.853160 Y12.095240 Z-0.125000 I5.161278 J-9.187622
G03 X189.545365 Y11.676880 Z-0.125000 I0.599526 J-0.763488
G02 X189.211360 Y11.339300 Z-0.125000 I-0.548455 J0.208622
G02 X188.571907 Y11.325205 Z-0.125000 I-0.338907 J0.863129
G03 X187.927760 Y11.339300 Z-0.125000 I-0.344211 J-1.004672
G03 X186.638299 Y10.617821 Z-0.125000 I0.940481 J-3.193905
G02 X185.360560 Y9.827390 Z-0.125000 I-2.812214 J3.118014
G02 X184.641462 Y9.670623 Z-0.125000 I-0.846841 J2.156854
G03 X183.435150 Y9.071420 Z-0.125000 I0.094039 J-1.703188
G03 X183.435147 Y8.693447 Z-0.125000 I0.222581 J-0.188988
G02 X183.435150 Y8.315480 Z-0.125000 I-0.222585 J-0.188986
G02 X183.114242 Y8.315483 Z-0.125000 I-0.160453 J0.136237
G03 X182.793350 Y8.315480 Z-0.125000 I-0.160445 J-0.136226
G03 X182.793342 Y7.937514 Z-0.125000 I0.222580 J-0.188988
G02 X182.793350 Y7.559520 Z-0.125000 I-0.222617 J-0.189002
G02 X182.151549 Y7.559523 Z-0.125000 I-0.320899 J0.272453
G03 X181.509740 Y7.559520 Z-0.125000 I-0.320903 J-0.272451
G03 X181.509740 Y7.181556 Z-0.125000 I0.222588 J-0.188982
G02 X181.509740 Y6.803570 Z-0.125000 I-0.222600 J-0.188993
G02 X181.207246 Y6.733137 Z-0.125000 I-0.198734 J0.168729
G03 X180.867940 Y6.803570 Z-0.125000 I-0.339306 J-0.782077
G01 X180.226140 Y6.803570 Z-0.125000
G03 X177.972871 Y6.678913 Z-0.125000 I-0.000000 J-20.427049
G02 X177.658930 Y6.803570 Z-0.125000 I-0.039697 J0.357675
G02 X177.690146 Y7.228312 Z-0.125000 I0.231464 J0.196507
G03 X177.658930 Y7.559520 Z-0.125000 I-0.135392 J0.154315
G03 X177.023619 Y7.584908 Z-0.125000 I-0.341322 J-0.579531
G02 X176.375320 Y7.559520 Z-0.125000 I-0.353099 J0.726543
G02 X176.028924 Y7.873092 Z-0.125000 I0.241435 J0.614822
G03 X175.733530 Y8.315480 Z-0.125000 I-2.060017 J-1.055711
G02 X175.116167 Y9.119748 Z-0.125000 I7.850397 J6.665111
G03 X174.449920 Y9.827390 Z-0.125000 I-2.676612 J-1.852580
G03 X173.175536 Y10.609567 Z-0.125000 I-4.017628 J-5.116582
G02 X171.882720 Y11.339300 Z-0.125000 I3.987948 J8.575227
G02 X169.941276 Y12.806777 Z-0.125000 I12.397291 J18.419366
G03 X168.031900 Y14.363090 Z-0.125000 I-43.695308 J-51.658534
G03 X167.057986 Y15.092827 Z-0.125000 I-16.595569 J-21.133846
G02 X166.106500 Y15.875000 Z-0.125000 I5.296496 J7.412811
G02 X164.830444 Y17.402626 Z-0.125000 I5.739402 J6.091005
G03 X163.539290 Y18.898820 Z-0.125000 I-6.142594 J-3.995603
G03 X161.988548 Y19.723277 Z-0.125000 I-2.497827 J-2.827583
G02 X160.330280 Y20.410730 Z-0.125000 I1.623215 J6.259258
G02 X159.235356 Y21.332135 Z-0.125000 I2.180073 J3.701887
G02 X158.404880 Y22.678570 Z-0.125000 I4.002182 J3.397865
G02 X158.415600 Y23.064904 Z-0.125000 I0.427346 J0.181458
G03 X158.404880 Y23.434520 Z-0.125000 I-0.355183 J0.174662
G03 X157.265890 Y24.920420 Z-0.125000 I-5.881763 J-3.329076
G02 X155.837670 Y26.458330 Z-0.125000 I16.547131 J16.799045
G03 X155.491879 Y26.807596 Z-0.125000 I-2.451716 J-2.081512
G02 X155.195870 Y27.214300 Z-0.125000 I0.729481 J0.842008
G02 X155.085034 Y28.151858 Z-0.125000 I1.551064 J0.658693
G03 X155.195870 Y29.482150 Z-0.125000 I-7.927912 J1.330292
G01 X155.195870 Y34.017860 Z-0.125000
G02 X155.497057 Y34.506110 Z-0.125000 I0.546341 J-0.000000
G03 X155.837670 Y34.773810 Z-0.125000 I-0.487385 J0.970677
G03 X155.866158 Y35.125424 Z-0.125000 I-0.230433 J0.195631
G02 X155.837670 Y35.529770 Z-0.125000 I0.381925 J0.230085
G02 X156.158572 Y35.907740 Z-0.125000 I0.766128 J-0.325243
G03 X156.479470 Y36.285720 Z-0.125000 I-0.445203 J0.703177
G03 X156.450983 Y36.690053 Z-0.125000 I-0.410387 J0.174257
G02 X156.479470 Y37.041670 Z-0.125000 I0.258919 J0.155986
G02 X156.800370 Y37.041670 Z-0.125000 I0.160450 J-0.136218
G03 X157.121270 Y37.041670 Z-0.125000 I0.160450 J0.136218
G03 X157.510427 Y37.732957 Z-0.125000 I-1.591216 J1.350948
G03 X157.763070 Y38.553570 Z-0.125000 I-17.805480 J5.930995
G03 X157.722784 Y38.964580 Z-0.125000 I-0.544267 J0.154132
G02 X157.763070 Y39.309530 Z-0.125000 I0.279061 J0.142237
G02 X158.083975 Y39.309530 Z-0.125000 I0.160453 J-0.136229
G03 X158.404880 Y39.309530 Z-0.125000 I0.160452 J0.136229
G03 X158.509302 Y40.013178 Z-0.125000 I-0.513212 J0.435734
G02 X158.404880 Y41.577380 Z-0.125000 I2.140454 J0.928478
G02 X158.738285 Y42.327786 Z-0.125000 I2.785149 J-0.788172
G03 X159.046680 Y43.089290 Z-0.125000 I-1.991345 J1.249657
G03 X159.062158 Y44.596054 Z-0.125000 I-3.730546 J0.791783
G02 X159.046680 Y46.113100 Z-0.125000 I4.199035 J0.801444
G02 X159.375420 Y47.244850 Z-0.125000 I5.084710 J-0.863341
G03 X159.688480 Y48.380960 Z-0.125000 I-4.246189 J1.781242
G03 X159.728343 Y49.509928 Z-0.125000 I-5.322458 J0.753121
G02 X159.688480 Y50.648810 Z-0.125000 I16.248792 J1.138882
G01 X159.688480 Y60.476190 Z-0.125000
G01 X159.688480 Y64.255960 Z-0.125000
G02 X159.720280 Y65.016627 Z-0.125000 I9.113604 J0.000000
G03 X159.688480 Y65.767860 Z-0.125000 I-2.984347 J0.249961
G03 X159.397149 Y66.913742 Z-0.125000 I-7.222877 J-1.226383
G02 X159.046680 Y68.035720 Z-0.125000 I20.609969 J7.053596
G02 X158.515557 Y69.971384 Z-0.125000 I120.913392 J34.217895
G03 X157.763070 Y71.815480 Z-0.125000 I-7.562060 J-2.010137
G03 X157.418344 Y72.175641 Z-0.125000 I-0.882139 J-0.499277
G02 X157.121270 Y72.571430 Z-0.125000 I0.364571 J0.583027
G02 X157.145020 Y73.341255 Z-0.125000 I1.227625 J0.347405
G03 X157.121270 Y74.083330 Z-0.125000 I-0.970037 J0.340371
G03 X156.841679 Y74.178432 Z-0.125000 I-0.182298 J-0.077403
G02 X156.479470 Y74.083330 Z-0.125000 I-0.362209 J0.642214
G02 X156.155915 Y74.113436 Z-0.125000 I-0.000000 J1.753686
G03 X155.837670 Y74.083330 Z-0.125000 I-0.106751 J-0.568661
G03 X155.195873 Y73.705362 Z-0.125000 I0.864313 J-2.201469
G02 X154.554060 Y73.327380 Z-0.125000 I-1.506206 J1.823618
G02 X153.834968 Y73.170620 Z-0.125000 I-0.846808 J2.156798
G03 X152.628660 Y72.571430 Z-0.125000 I0.094020 J-1.703168
G03 X152.628660 Y72.193455 Z-0.125000 I0.222607 J-0.188987
G02 X152.628660 Y71.815480 Z-0.125000 I-0.222607 J-0.188988
G02 X152.322145 Y71.788622 Z-0.125000 I-0.166846 J0.141648
G03 X151.986850 Y71.815480 Z-0.125000 I-0.186773 J-0.225335
G03 X151.659333 Y71.455262 Z-0.125000 I0.417135 J-0.708268
G02 X151.345050 Y71.059530 Z-0.125000 I-0.987406 J0.461514
G02 X149.957082 Y70.381272 Z-0.125000 I-2.276270 J2.898816
G03 X148.136050 Y69.547620 Z-0.125000 I1.305732 J-5.258005
G03 X147.502219 Y68.769273 Z-0.125000 I1.077524 J-1.524708
G02 X146.852440 Y68.035720 Z-0.125000 I-1.455637 J0.634836
G02 X146.210633 Y68.035722 Z-0.125000 I-0.320904 J0.544899
G03 X145.568840 Y68.035720 Z-0.125000 I-0.320893 J-0.544880
G03 X144.919060 Y67.302156 Z-0.125000 I0.805901 J-1.368419
G02 X144.285230 Y66.523810 Z-0.125000 I-1.711353 J0.746360
G02 X143.322537 Y66.145835 Z-0.125000 I-1.249974 J1.768690
G03 X142.359830 Y65.767860 Z-0.125000 I0.287289 J-2.146727
G03 X141.706315 Y65.039618 Z-0.125000 I1.270006 J-1.797036
G02 X141.076220 Y64.255960 Z-0.125000 I-2.597206 J1.443125
G02 X140.422140 Y63.901728 Z-0.125000 I-1.093022 J1.237247
G03 X139.792620 Y63.500000 Z-0.125000 I0.337158 J-1.222441
G03 X139.471724 Y62.744053 Z-0.125000 I1.050882 J-0.892188
G02 X139.150820 Y61.988100 Z-0.125000 I-1.371760 J0.136239
G02 X138.509014 Y61.610125 Z-0.125000 I-0.864396 J0.733883
G03 X137.867220 Y61.232150 Z-0.125000 I0.222582 J-1.111819
G03 X137.546315 Y60.476185 Z-0.125000 I1.050905 J-0.892200
G02 X137.225420 Y59.720240 Z-0.125000 I-1.371778 J0.136232
G02 X136.583615 Y59.342265 Z-0.125000 I-0.864403 J0.733881
G03 X135.941810 Y58.964290 Z-0.125000 I0.222598 J-1.111856
G03 X135.901522 Y58.619335 Z-0.125000 I0.238761 J-0.202715
G02 X135.941810 Y58.208340 Z-0.125000 I-0.503931 J-0.256869
G02 X135.669323 Y57.413221 Z-0.125000 I-7.442668 J2.106347
G02 X135.300010 Y56.696430 Z-0.125000 I-4.101651 J1.659763
G02 X134.628741 Y55.969227 Z-0.125000 I-2.351933 J1.497611
G03 X134.016410 Y55.184530 Z-0.125000 I1.161625 J-1.537725
G03 X134.016410 Y54.428575 Z-0.125000 I0.890415 J-0.377978
G02 X134.016410 Y53.672620 Z-0.125000 I-0.890415 J-0.377978
G02 X133.404069 Y52.887922 Z-0.125000 I-1.773998 J0.753073
G03 X132.732800 Y52.160720 Z-0.125000 I1.680654 J-2.224806
G03 X132.385591 Y51.429804 Z-0.125000 I2.770103 J-1.763815
G02 X132.091000 Y50.648810 Z-0.125000 I-9.727081 J3.222999
G02 X131.423677 Y49.154634 Z-0.125000 I-40.525131 J17.203067
G03 X130.807390 Y47.625000 Z-0.125000 I13.428462 J-6.299273
G03 X130.486494 Y46.491076 Z-0.125000 I10.821603 J-3.675954
G02 X130.165590 Y45.357150 Z-0.125000 I-11.141234 J2.541741
G02 X129.202890 Y43.089290 Z-0.125000 I-15.762390 J5.352827
G03 X128.240190 Y40.821430 Z-0.125000 I14.799690 J-7.620687
G03 X127.919286 Y39.687507 Z-0.125000 I10.818149 J-3.673945
G02 X127.598380 Y38.553570 Z-0.125000 I-11.139633 J2.540154
G02 X127.247689 Y37.811119 Z-0.125000 I-3.420440 J1.161570
G03 X126.956580 Y37.041670 Z-0.125000 I1.817932 J-1.127578
G03 X126.956583 Y35.907748 Z-0.125000 I3.339148 J-0.566988
G02 X126.956580 Y34.773810 Z-0.125000 I-3.339086 J-0.566924
G02 X126.678267 Y33.995481 Z-0.125000 I-2.337107 J0.396772
G03 X126.314780 Y33.261910 Z-0.125000 I6.069567 J-3.464335
G02 X125.628882 Y31.778201 Z-0.125000 I-23.824839 J10.113496
G03 X125.031180 Y30.238090 Z-0.125000 I7.833524 J-3.926151
G03 X125.043047 Y29.853177 Z-0.125000 I0.613435 J-0.173728
G02 X125.031180 Y29.482150 Z-0.125000 I-0.484813 J-0.170197
G02 X124.710283 Y29.104171 Z-0.125000 I-0.766097 J0.325201
G03 X124.389380 Y28.726180 Z-0.125000 I0.445203 J-0.703185
G03 X124.389380 Y28.348210 Z-0.125000 I0.445053 J-0.188985
G02 X124.389380 Y27.970240 Z-0.125000 I-0.445053 J-0.188985
G02 X124.078896 Y27.582775 Z-0.125000 I-0.844282 J0.358411
G03 X123.747580 Y27.214300 Z-0.125000 I0.668859 J-0.934597
G03 X123.408313 Y26.474770 Z-0.125000 I4.173973 J-2.362438
G02 X123.105780 Y25.702390 Z-0.125000 I-13.876040 J4.989660
G01 X122.463970 Y24.190480 Z-0.125000
G03 X122.189121 Y23.383955 Z-0.125000 I5.377515 J-2.282654
G02 X121.822170 Y22.678570 Z-0.125000 I-1.729858 J0.451757
G02 X121.501265 Y22.678575 Z-0.125000 I-0.160450 J0.136235
G03 X121.180370 Y22.678570 Z-0.125000 I-0.160445 J-0.136222
G03 X121.151878 Y22.326963 Z-0.125000 I0.230401 J-0.195628
G02 X121.180370 Y21.922630 Z-0.125000 I-0.381885 J-0.230080
G02 X120.859465 Y21.544649 Z-0.125000 I-0.766141 J0.325240
G03 X120.538570 Y21.166670 Z-0.125000 I0.445210 J-0.703180
G03 X120.538572 Y20.788692 Z-0.125000 I0.445077 J-0.188986
G02 X120.538570 Y20.410730 Z-0.125000 I-0.445049 J-0.188981
G02 X119.788368 Y19.906332 Z-0.125000 I-0.762211 J0.323558
G03 X119.254960 Y19.654760 Z-0.125000 I0.010344 J-0.713211
G03 X118.934061 Y18.898827 Z-0.125000 I1.050789 J-0.892146
G02 X118.613160 Y18.142850 Z-0.125000 I-1.371838 J0.136228
G02 X118.309430 Y18.103237 Z-0.125000 I-0.173680 J0.147458
G03 X117.971360 Y18.142850 Z-0.125000 I-0.206093 J-0.296456
G03 X116.806034 Y17.287356 Z-0.125000 I1.030863 J-2.625639
G02 X116.045950 Y16.630970 Z-0.125000 I-2.182755 J1.759318
G02 X115.728299 Y16.618274 Z-0.125000 I-0.170657 J0.289688
G03 X115.404150 Y16.630970 Z-0.125000 I-0.176547 J-0.363178
G03 X114.762347 Y16.252971 Z-0.125000 I0.864589 J-2.201836
G02 X114.120550 Y15.875000 Z-0.125000 I-1.506081 J1.823460
G02 X113.796396 Y15.887686 Z-0.125000 I-0.147614 J0.375905
G03 X113.478750 Y15.875000 Z-0.125000 I-0.146997 J-0.302436
G03 X113.157845 Y15.497027 Z-0.125000 I0.383016 J-0.650397
G02 X112.836950 Y15.119060 Z-0.125000 I-0.703920 J0.272423
G02 X112.521765 Y15.076121 Z-0.125000 I-0.208824 J0.354588
G03 X112.195150 Y15.119060 Z-0.125000 I-0.326615 J-1.220734
G02 X111.550318 Y15.165079 Z-0.125000 I-0.000000 J4.540766
G03 X110.911540 Y15.119060 Z-0.125000 I-0.213722 J-1.489735
G03 X110.266812 Y14.758325 Z-0.125000 I0.470270 J-1.597011
G02 X109.627940 Y14.363090 Z-0.125000 I-1.406369 J1.559340
G02 X108.721115 Y14.273091 Z-0.125000 I-0.612793 J1.560905
G03 X107.702530 Y14.363090 Z-0.125000 I-1.018585 J-5.719040
G01 X103.209910 Y14.363090 Z-0.125000
G03 X102.870611 Y14.292660 Z-0.125000 I-0.000000 J-0.852505
G02 X102.568110 Y14.363090 Z-0.125000 I-0.103764 J0.239173
G02 X102.344304 Y14.861393 Z-0.125000 I0.749011 J0.635818
G02 X102.568110 Y15.119060 Z-0.125000 I0.223806 J0.031637
G02 X103.273948 Y14.360797 Z-0.125000 I0.000000 J-0.707651
G01 X103.209910 Y14.363090 Z-0.125000
G03 X102.944914 Y15.132473 Z-0.125000 I-1.249403 J0.000000
G02 X102.568110 Y15.875000 Z-0.125000 I1.703238 J1.331199
G02 X102.608394 Y16.285989 Z-0.125000 I0.544222 J0.154126
G03 X102.568110 Y16.630970 Z-0.125000 I-0.279086 J0.142253
G03 X102.247225 Y16.630966 Z-0.125000 I-0.160441 J-0.136217
G02 X101.926310 Y16.630970 Z-0.125000 I-0.160456 J0.136223
G02 X101.926313 Y17.386907 Z-0.125000 I0.445180 J0.377967
G03 X101.926310 Y18.142850 Z-0.125000 I-0.445175 J0.377970
G03 X101.605402 Y18.142857 Z-0.125000 I-0.160457 J-0.136208
G02 X101.284510 Y18.142850 Z-0.125000 I-0.160449 J0.136213
G02 X101.217985 Y18.482211 Z-0.125000 I0.269896 J0.229109
G03 X101.284510 Y18.898820 Z-0.125000 I-1.271233 J0.416609
G03 X101.110799 Y21.349613 Z-0.125000 I-17.375255 J-0.000000
G02 X101.284510 Y22.678570 Z-0.125000 I2.473874 J0.352466
G02 X101.605424 Y23.056563 Z-0.125000 I0.766146 J-0.325230
G03 X101.926310 Y23.434520 Z-0.125000 I-0.445197 J0.703168
G03 X101.869313 Y24.243202 Z-0.125000 I-0.820945 J0.348488
G02 X101.926310 Y24.946420 Z-0.125000 I0.517848 J0.311946
G02 X102.247225 Y24.946424 Z-0.125000 I0.160459 J-0.136219
G03 X102.568110 Y24.946420 Z-0.125000 I0.160444 J0.136213
G03 X102.662382 Y25.248327 Z-0.125000 I-0.311409 J0.262911
G02 X102.568110 Y27.214300 Z-0.125000 I20.452349 J1.965973
G01 X102.568110 Y33.261910 Z-0.125000
G02 X102.705711 Y35.245446 Z-0.125000 I14.365274 J0.000000
G03 X102.568110 Y36.285720 Z-0.125000 I-1.947965 J0.271573
G03 X102.247215 Y36.663694 Z-0.125000 I-0.766083 J-0.325191
G02 X101.926310 Y37.041670 Z-0.125000 I0.445214 J0.703207
G02 X102.005713 Y38.488303 Z-0.125000 I1.513330 J0.642432
G03 X101.926310 Y39.309530 Z-0.125000 I-0.630321 J0.353508
G03 X101.605410 Y39.309530 Z-0.125000 I-0.160450 J-0.136218
G02 X101.284510 Y39.309530 Z-0.125000 I-0.160450 J0.136218
G02 X101.256023 Y39.661147 Z-0.125000 I0.230433 J0.195631
G03 X101.284510 Y40.065480 Z-0.125000 I-0.381900 J0.230076
G03 X100.963610 Y40.443455 Z-0.125000 I-0.766074 J-0.325186
G02 X100.642710 Y40.821430 Z-0.125000 I0.445174 J0.703161
G02 X100.699701 Y41.630093 Z-0.125000 I0.820919 J0.348485
G03 X100.642710 Y42.333340 Z-0.125000 I-0.517882 J0.311964
G03 X100.321802 Y42.333337 Z-0.125000 I-0.160453 J-0.136229
G02 X100.000910 Y42.333340 Z-0.125000 I-0.160445 J0.136218
G02 X100.000908 Y42.711317 Z-0.125000 I0.222599 J0.188990
G03 X100.000910 Y43.089290 Z-0.125000 I-0.222602 J0.188988
G03 X99.680006 Y43.089289 Z-0.125000 I-0.160452 J-0.136226
G02 X99.359106 Y43.089290 Z-0.125000 I-0.160450 J0.136223
G02 X99.359106 Y43.467265 Z-0.125000 I0.222601 J0.188987
G03 X99.359106 Y43.845240 Z-0.125000 I-0.222601 J0.188987
G03 X98.741655 Y44.281352 Z-0.125000 I-1.155852 J-0.981314
G02 X98.075498 Y44.601190 Z-0.125000 I1.552475 J4.087136
G02 X97.440759 Y45.009195 Z-0.125000 I4.905214 J8.328858
G03 X96.791898 Y45.357150 Z-0.125000 I-1.790683 J-2.560263
G03 X96.467755 Y45.344466 Z-0.125000 I-0.147611 J-0.375884
G02 X96.150099 Y45.357150 Z-0.125000 I-0.147005 J0.302450
G02 X95.829195 Y45.735119 Z-0.125000 I0.383015 J0.650399
G03 X95.508290 Y46.113100 Z-0.125000 I-0.703961 J-0.272447
G03 X93.903574 Y46.550498 Z-0.125000 I-1.604716 J-2.724975
G03 X92.299283 Y46.113100 Z-0.125000 I0.000000 J-3.160815
G03 X91.978382 Y45.735119 Z-0.125000 I0.383047 J-0.650413
G02 X91.657483 Y45.357150 Z-0.125000 I-0.703906 J0.272415
G02 X91.336583 Y45.357150 Z-0.125000 I-0.160450 J0.272443
G03 X91.015683 Y45.357150 Z-0.125000 I-0.160450 J-0.272443
G03 X90.242315 Y44.325758 Z-0.125000 I0.849707 J-1.442778
G02 X89.090275 Y43.845240 Z-0.125000 I-0.756174 J0.191660
G02 X88.769375 Y44.223214 Z-0.125000 I0.383061 J0.650428
G03 X88.448473 Y44.601190 Z-0.125000 I-0.703961 J-0.272453
G03 X87.806670 Y44.601193 Z-0.125000 I-0.320905 J-0.544872
G02 X87.164871 Y44.601190 Z-0.125000 I-0.320901 J0.544881
G02 X86.843969 Y44.979170 Z-0.125000 I0.383053 J0.650420
G03 X86.523067 Y45.357150 Z-0.125000 I-0.703955 J-0.272440
G03 X86.187784 Y45.330294 Z-0.125000 I-0.148518 J-0.252182
G02 X85.881266 Y45.357150 Z-0.125000 I-0.139671 J0.168509
G02 X85.852767 Y45.708773 Z-0.125000 I0.230440 J0.195644
G03 X85.881266 Y46.113100 Z-0.125000 I-0.381968 J0.230091
G03 X85.585249 Y46.519801 Z-0.125000 I-1.025464 J-0.435306
G02 X85.239465 Y46.869050 Z-0.125000 I2.105570 J2.430478
G02 X84.937457 Y47.288917 Z-0.125000 I2.455754 J2.084965
G03 X84.597662 Y47.625000 Z-0.125000 I-0.834399 J-0.503798
G02 X84.185095 Y47.942382 Z-0.125000 I0.000000 J0.426841
G03 X83.955860 Y48.380960 Z-0.125000 I-1.084829 J-0.287818
G03 X83.634962 Y48.380958 Z-0.125000 I-0.160448 J-0.136226
G02 X83.314059 Y48.380960 Z-0.125000 I-0.160451 J0.136225
G02 X83.314056 Y48.758927 Z-0.125000 I0.222585 J0.188985
G03 X83.314059 Y49.136910 Z-0.125000 I-0.222602 J0.188993
G03 X82.993156 Y49.136909 Z-0.125000 I-0.160451 J-0.136223
G02 X82.672258 Y49.136910 Z-0.125000 I-0.160449 J0.136220
G02 X82.672258 Y49.892860 Z-0.125000 I0.445203 J0.377975
G03 X82.672258 Y50.648810 Z-0.125000 I-0.445203 J0.377975
G03 X82.365741 Y50.675666 Z-0.125000 I-0.166846 J-0.141653
G02 X82.030455 Y50.648810 Z-0.125000 I-0.186767 J0.225329
G02 X81.709555 Y51.026790 Z-0.125000 I0.383055 J0.650420
G03 X81.388653 Y51.404770 Z-0.125000 I-0.703956 J-0.272440
G03 X81.053369 Y51.377911 Z-0.125000 I-0.148516 J-0.252182
G02 X80.746852 Y51.404770 Z-0.125000 I-0.139670 J0.168502
G02 X80.718351 Y51.756385 Z-0.125000 I0.230423 J0.195640
G03 X80.746852 Y52.160720 Z-0.125000 I-0.381970 J0.230097
G03 X80.425950 Y52.538695 Z-0.125000 I-0.766091 J-0.325203
G02 X80.105048 Y52.916670 Z-0.125000 I0.445189 J0.703178
G02 X80.133547 Y53.320997 Z-0.125000 I0.410467 J0.174236
G03 X80.105048 Y53.672620 Z-0.125000 I-0.258938 J0.155980
G03 X79.798534 Y53.699477 Z-0.125000 I-0.166845 J-0.141650
G02 X79.463248 Y53.672620 Z-0.125000 I-0.186767 J0.225328
G02 X79.123452 Y54.008710 Z-0.125000 I0.494663 J0.839933
G03 X78.821446 Y54.428570 Z-0.125000 I-2.757849 J-1.665180
G01 X76.254239 Y57.452380 Z-0.125000
G01 X76.254239 Y57.452380 Z-0.125000
G00 Z5.000000

(End cutting path id: path7044)


(Footer)
M5
G00 X0.0000 Y0.0000
M2
(Using default footer. To add your own footer create file "footer" in the output dir.)
(end)
%